projects/Week3-Starter-Fixed/res/luts/mycustom.CUBE
#Created by: Adobe Photoshop Export Color Lookup Plugin
TITLE "mycustom"
#LUT size
LUT_3D_SIZE 5
#data domain
#LUT data points
DOMAIN_MIN 0.000000 0.000000 0.000000
DOMAIN_MAX 0.903226 0.903226 0.903226
0.000000 0.000000 0.000000
0.633514 0.000000 0.000000
0.783600 0.000000 0.000000
0.887390 0.000000 0.000000
0.969269 0.000000 0.000000
0.000000 0.311829 0.000000
0.633514 0.311829 0.000000
0.783600 0.311829 0.000000
0.887390 0.311829 0.000000
0.969269 0.311829 0.000000
0.000000 0.615265 0.000000
0.633514 0.615265 0.000000
0.783600 0.615265 0.000000
0.887390 0.615265 0.000000
0.969269 0.615265 0.000000
0.000000 0.915619 0.000000
0.633514 0.915619 0.000000
0.783600 0.915619 0.000000
0.887390 0.915619 0.000000
0.969269 0.915619 0.000000
0.000000 1.000000 0.000000
0.633514 1.000000 0.000000
0.783600 1.000000 0.000000
0.887390 1.000000 0.000000
0.969269 1.000000 0.000000
0.000000 0.000000 0.751129
0.633514 0.000000 0.751129
0.783600 0.000000 0.751129
0.887390 0.000000 0.751129
0.969269 0.000000 0.751129
0.000000 0.311829 0.751129
0.633514 0.311829 0.751129
0.783600 0.311829 0.751129
0.887390 0.311829 0.751129
0.969269 0.311829 0.751129
0.000000 0.615265 0.751129
0.633514 0.615265 0.751129
0.783600 0.615265 0.751129
0.887390 0.615265 0.751129
0.969269 0.615265 0.751129
0.000000 0.915619 0.751129
0.633514 0.915619 0.751129
0.783600 0.915619 0.751129
0.887390 0.915619 0.751129
0.969269 0.915619 0.751129
0.000000 1.000000 0.751129
0.633514 1.000000 0.751129
0.783600 1.000000 0.751129
0.887390 1.000000 0.751129
0.969269 1.000000 0.751129
0.000000 0.000000 0.858215
0.633514 0.000000 0.858215
0.783600 0.000000 0.858215
0.887390 0.000000 0.858215
0.969269 0.000000 0.858215
0.000000 0.311829 0.858215
0.633514 0.311829 0.858215
0.783600 0.311829 0.858215
0.887390 0.311829 0.858215
0.969269 0.311829 0.858215
0.000000 0.615265 0.858215
0.633514 0.615265 0.858215
0.783600 0.615265 0.858215
0.887390 0.615265 0.858215
0.969269 0.615265 0.858215
0.000000 0.915619 0.858215
0.633514 0.915619 0.858215
0.783600 0.915619 0.858215
0.887390 0.915619 0.858215
0.969269 0.915619 0.858215
0.000000 1.000000 0.858215
0.633514 1.000000 0.858215
0.783600 1.000000 0.858215
0.887390 1.000000 0.858215
0.969269 1.000000 0.858215
0.000000 0.000000 0.927856
0.633514 0.000000 0.927856
0.783600 0.000000 0.927856
0.887390 0.000000 0.927856
0.969269 0.000000 0.927856
0.000000 0.311829 0.927856
0.633514 0.311829 0.927856
0.783600 0.311829 0.927856
0.887390 0.311829 0.927856
0.969269 0.311829 0.927856
0.000000 0.615265 0.927856
0.633514 0.615265 0.927856
0.783600 0.615265 0.927856
0.887390 0.615265 0.927856
0.969269 0.615265 0.927856
0.000000 0.915619 0.927856
0.633514 0.915619 0.927856
0.783600 0.915619 0.927856
0.887390 0.915619 0.927856
0.969269 0.915619 0.927856
0.000000 1.000000 0.927856
0.633514 1.000000 0.927856
0.783600 1.000000 0.927856
0.887390 1.000000 0.927856
0.969269 1.000000 0.927856
0.000000 0.000000 0.980621
0.633514 0.000000 0.980621
0.783600 0.000000 0.980621
0.887390 0.000000 0.980621
0.969269 0.000000 0.980621
0.000000 0.311829 0.980621
0.633514 0.311829 0.980621
0.783600 0.311829 0.980621
0.887390 0.311829 0.980621
0.969269 0.311829 0.980621
0.000000 0.615265 0.980621
0.633514 0.615265 0.980621
0.783600 0.615265 0.980621
0.887390 0.615265 0.980621
0.969269 0.615265 0.980621
0.000000 0.915619 0.980621
0.633514 0.915619 0.980621
0.783600 0.915619 0.980621
0.887390 0.915619 0.980621
0.969269 0.915619 0.980621
0.000000 1.000000 0.980621
0.633514 1.000000 0.980621
0.783600 1.000000 0.980621
0.887390 1.000000 0.980621
0.969269 1.000000 0.980621
