projects/Week3-Starter-Fixed/res/luts/mycustom.CUBE
#Created by: Adobe Photoshop Export Color Lookup Plugin
TITLE "mycustom"
#LUT size
LUT_3D_SIZE 8
#data domain
#LUT data points
DOMAIN_MIN 0.000000 0.000000 0.000000
DOMAIN_MAX 0.903226 0.903226 0.903226
0.000000 0.000000 0.000000
0.533600 0.000000 0.000000
0.660004 0.000000 0.000000
0.747437 0.000000 0.000000
0.816406 0.000000 0.000000
0.874237 0.000000 0.000000
0.924500 0.000000 0.000000
0.969269 0.000000 0.000000
0.000000 0.180145 0.000000
0.533600 0.180145 0.000000
0.660004 0.180145 0.000000
0.747437 0.180145 0.000000
0.816406 0.180145 0.000000
0.874237 0.180145 0.000000
0.924500 0.180145 0.000000
0.969269 0.180145 0.000000
0.000000 0.355408 0.000000
0.533600 0.355408 0.000000
0.660004 0.355408 0.000000
0.747437 0.355408 0.000000
0.816406 0.355408 0.000000
0.874237 0.355408 0.000000
0.924500 0.355408 0.000000
0.969269 0.355408 0.000000
0.000000 0.528900 0.000000
0.533600 0.528900 0.000000
0.660004 0.528900 0.000000
0.747437 0.528900 0.000000
0.816406 0.528900 0.000000
0.874237 0.528900 0.000000
0.924500 0.528900 0.000000
0.969269 0.528900 0.000000
0.000000 0.701294 0.000000
0.533600 0.701294 0.000000
0.660004 0.701294 0.000000
0.747437 0.701294 0.000000
0.816406 0.701294 0.000000
0.874237 0.701294 0.000000
0.924500 0.701294 0.000000
0.969269 0.701294 0.000000
0.000000 0.872803 0.000000
0.533600 0.872803 0.000000
0.660004 0.872803 0.000000
0.747437 0.872803 0.000000
0.816406 0.872803 0.000000
0.874237 0.872803 0.000000
0.924500 0.872803 0.000000
0.969269 0.872803 0.000000
0.000000 1.000000 0.000000
0.533600 1.000000 0.000000
0.660004 1.000000 0.000000
0.747437 1.000000 0.000000
0.816406 1.000000 0.000000
0.874237 1.000000 0.000000
0.924500 1.000000 0.000000
0.969269 1.000000 0.000000
0.000000 1.000000 0.000000
0.533600 1.000000 0.000000
0.660004 1.000000 0.000000
0.747437 1.000000 0.000000
0.816406 1.000000 0.000000
0.874237 1.000000 0.000000
0.924500 1.000000 0.000000
0.969269 1.000000 0.000000
0.000000 0.000000 0.674500
0.533600 0.000000 0.674500
0.660004 0.000000 0.674500
0.747437 0.000000 0.674500
0.816406 0.000000 0.674500
0.874237 0.000000 0.674500
0.924500 0.000000 0.674500
0.969269 0.000000 0.674500
0.000000 0.180145 0.674500
0.533600 0.180145 0.674500
0.660004 0.180145 0.674500
0.747437 0.180145 0.674500
0.816406 0.180145 0.674500
0.874237 0.180145 0.674500
0.924500 0.180145 0.674500
0.969269 0.180145 0.674500
0.000000 0.355408 0.674500
0.533600 0.355408 0.674500
0.660004 0.355408 0.674500
0.747437 0.355408 0.674500
0.816406 0.355408 0.674500
0.874237 0.355408 0.674500
0.924500 0.355408 0.674500
0.969269 0.355408 0.674500
0.000000 0.528900 0.674500
0.533600 0.528900 0.674500
0.660004 0.528900 0.674500
0.747437 0.528900 0.674500
0.816406 0.528900 0.674500
0.874237 0.528900 0.674500
0.924500 0.528900 0.674500
0.969269 0.528900 0.674500
0.000000 0.701294 0.674500
0.533600 0.701294 0.674500
0.660004 0.701294 0.674500
0.747437 0.701294 0.674500
0.816406 0.701294 0.674500
0.874237 0.701294 0.674500
0.924500 0.701294 0.674500
0.969269 0.701294 0.674500
0.000000 0.872803 0.674500
0.533600 0.872803 0.674500
0.660004 0.872803 0.674500
0.747437 0.872803 0.674500
0.816406 0.872803 0.674500
0.874237 0.872803 0.674500
0.924500 0.872803 0.674500
0.969269 0.872803 0.674500
0.000000 1.000000 0.674500
0.533600 1.000000 0.674500
0.660004 1.000000 0.674500
0.747437 1.000000 0.674500
0.816406 1.000000 0.674500
0.874237 1.000000 0.674500
0.924500 1.000000 0.674500
0.969269 1.000000 0.674500
0.000000 1.000000 0.674500
0.533600 1.000000 0.674500
0.660004 1.000000 0.674500
0.747437 1.000000 0.674500
0.816406 1.000000 0.674500
0.874237 1.000000 0.674500
0.924500 1.000000 0.674500
0.969269 1.000000 0.674500
0.000000 0.000000 0.770660
0.533600 0.000000 0.770660
0.660004 0.000000 0.770660
0.747437 0.000000 0.770660
0.816406 0.000000 0.770660
0.874237 0.000000 0.770660
0.924500 0.000000 0.770660
0.969269 0.000000 0.770660
0.000000 0.180145 0.770660
0.533600 0.180145 0.770660
0.660004 0.180145 0.770660
0.747437 0.180145 0.770660
0.816406 0.180145 0.770660
0.874237 0.180145 0.770660
0.924500 0.180145 0.770660
0.969269 0.180145 0.770660
0.000000 0.355408 0.770660
0.533600 0.355408 0.770660
0.660004 0.355408 0.770660
0.747437 0.355408 0.770660
0.816406 0.355408 0.770660
0.874237 0.355408 0.770660
0.924500 0.355408 0.770660
0.969269 0.355408 0.770660
0.000000 0.528900 0.770660
0.533600 0.528900 0.770660
0.660004 0.528900 0.770660
0.747437 0.528900 0.770660
0.816406 0.528900 0.770660
0.874237 0.528900 0.770660
0.924500 0.528900 0.770660
0.969269 0.528900 0.770660
0.000000 0.701294 0.770660
0.533600 0.701294 0.770660
0.660004 0.701294 0.770660
0.747437 0.701294 0.770660
0.816406 0.701294 0.770660
0.874237 0.701294 0.770660
0.924500 0.701294 0.770660
0.969269 0.701294 0.770660
0.000000 0.872803 0.770660
0.533600 0.872803 0.770660
0.660004 0.872803 0.770660
0.747437 0.872803 0.770660
0.816406 0.872803 0.770660
0.874237 0.872803 0.770660
0.924500 0.872803 0.770660
0.969269 0.872803 0.770660
0.000000 1.000000 0.770660
0.533600 1.000000 0.770660
0.660004 1.000000 0.770660
0.747437 1.000000 0.770660
0.816406 1.000000 0.770660
0.874237 1.000000 0.770660
0.924500 1.000000 0.770660
0.969269 1.000000 0.770660
0.000000 1.000000 0.770660
0.533600 1.000000 0.770660
0.660004 1.000000 0.770660
0.747437 1.000000 0.770660
0.816406 1.000000 0.770660
0.874237 1.000000 0.770660
0.924500 1.000000 0.770660
0.969269 1.000000 0.770660
0.000000 0.000000 0.833191
0.533600 0.000000 0.833191
0.660004 0.000000 0.833191
0.747437 0.000000 0.833191
0.816406 0.000000 0.833191
0.874237 0.000000 0.833191
0.924500 0.000000 0.833191
0.969269 0.000000 0.833191
0.000000 0.180145 0.833191
0.533600 0.180145 0.833191
0.660004 0.180145 0.833191
0.747437 0.180145 0.833191
0.816406 0.180145 0.833191
0.874237 0.180145 0.833191
0.924500 0.180145 0.833191
0.969269 0.180145 0.833191
0.000000 0.355408 0.833191
0.533600 0.355408 0.833191
0.660004 0.355408 0.833191
0.747437 0.355408 0.833191
0.816406 0.355408 0.833191
0.874237 0.355408 0.833191
0.924500 0.355408 0.833191
0.969269 0.355408 0.833191
0.000000 0.528900 0.833191
0.533600 0.528900 0.833191
0.660004 0.528900 0.833191
0.747437 0.528900 0.833191
0.816406 0.528900 0.833191
0.874237 0.528900 0.833191
0.924500 0.528900 0.833191
0.969269 0.528900 0.833191
0.000000 0.701294 0.833191
0.533600 0.701294 0.833191
0.660004 0.701294 0.833191
0.747437 0.701294 0.833191
0.816406 0.701294 0.833191
0.874237 0.701294 0.833191
0.924500 0.701294 0.833191
0.969269 0.701294 0.833191
0.000000 0.872803 0.833191
0.533600 0.872803 0.833191
0.660004 0.872803 0.833191
0.747437 0.872803 0.833191
0.816406 0.872803 0.833191
0.874237 0.872803 0.833191
0.924500 0.872803 0.833191
0.969269 0.872803 0.833191
0.000000 1.000000 0.833191
0.533600 1.000000 0.833191
0.660004 1.000000 0.833191
0.747437 1.000000 0.833191
0.816406 1.000000 0.833191
0.874237 1.000000 0.833191
0.924500 1.000000 0.833191
0.969269 1.000000 0.833191
0.000000 1.000000 0.833191
0.533600 1.000000 0.833191
0.660004 1.000000 0.833191
0.747437 1.000000 0.833191
0.816406 1.000000 0.833191
0.874237 1.000000 0.833191
0.924500 1.000000 0.833191
0.969269 1.000000 0.833191
0.000000 0.000000 0.880554
0.533600 0.000000 0.880554
0.660004 0.000000 0.880554
0.747437 0.000000 0.880554
0.816406 0.000000 0.880554
0.874237 0.000000 0.880554
0.924500 0.000000 0.880554
0.969269 0.000000 0.880554
0.000000 0.180145 0.880554
0.533600 0.180145 0.880554
0.660004 0.180145 0.880554
0.747437 0.180145 0.880554
0.816406 0.180145 0.880554
0.874237 0.180145 0.880554
0.924500 0.180145 0.880554
0.969269 0.180145 0.880554
0.000000 0.355408 0.880554
0.533600 0.355408 0.880554
0.660004 0.355408 0.880554
0.747437 0.355408 0.880554
0.816406 0.355408 0.880554
0.874237 0.355408 0.880554
0.924500 0.355408 0.880554
0.969269 0.355408 0.880554
0.000000 0.528900 0.880554
0.533600 0.528900 0.880554
0.660004 0.528900 0.880554
0.747437 0.528900 0.880554
0.816406 0.528900 0.880554
0.874237 0.528900 0.880554
0.924500 0.528900 0.880554
0.969269 0.528900 0.880554
0.000000 0.701294 0.880554
0.533600 0.701294 0.880554
0.660004 0.701294 0.880554
0.747437 0.701294 0.880554
0.816406 0.701294 0.880554
0.874237 0.701294 0.880554
0.924500 0.701294 0.880554
0.969269 0.701294 0.880554
0.000000 0.872803 0.880554
0.533600 0.872803 0.880554
0.660004 0.872803 0.880554
0.747437 0.872803 0.880554
0.816406 0.872803 0.880554
0.874237 0.872803 0.880554
0.924500 0.872803 0.880554
0.969269 0.872803 0.880554
0.000000 1.000000 0.880554
0.533600 1.000000 0.880554
0.660004 1.000000 0.880554
0.747437 1.000000 0.880554
0.816406 1.000000 0.880554
0.874237 1.000000 0.880554
0.924500 1.000000 0.880554
0.969269 1.000000 0.880554
0.000000 1.000000 0.880554
0.533600 1.000000 0.880554
0.660004 1.000000 0.880554
0.747437 1.000000 0.880554
0.816406 1.000000 0.880554
0.874237 1.000000 0.880554
0.924500 1.000000 0.880554
0.969269 1.000000 0.880554
0.000000 0.000000 0.919159
0.533600 0.000000 0.919159
0.660004 0.000000 0.919159
0.747437 0.000000 0.919159
0.816406 0.000000 0.919159
0.874237 0.000000 0.919159
0.924500 0.000000 0.919159
0.969269 0.000000 0.919159
0.000000 0.180145 0.919159
0.533600 0.180145 0.919159
0.660004 0.180145 0.919159
0.747437 0.180145 0.919159
0.816406 0.180145 0.919159
0.874237 0.180145 0.919159
0.924500 0.180145 0.919159
0.969269 0.180145 0.919159
0.000000 0.355408 0.919159
0.533600 0.355408 0.919159
0.660004 0.355408 0.919159
0.747437 0.355408 0.919159
0.816406 0.355408 0.919159
0.874237 0.355408 0.919159
0.924500 0.355408 0.919159
0.969269 0.355408 0.919159
0.000000 0.528900 0.919159
0.533600 0.528900 0.919159
0.660004 0.528900 0.919159
0.747437 0.528900 0.919159
0.816406 0.528900 0.919159
0.874237 0.528900 0.919159
0.924500 0.528900 0.919159
0.969269 0.528900 0.919159
0.000000 0.701294 0.919159
0.533600 0.701294 0.919159
0.660004 0.701294 0.919159
0.747437 0.701294 0.919159
0.816406 0.701294 0.919159
0.874237 0.701294 0.919159
0.924500 0.701294 0.919159
0.969269 0.701294 0.919159
0.000000 0.872803 0.919159
0.533600 0.872803 0.919159
0.660004 0.872803 0.919159
0.747437 0.872803 0.919159
0.816406 0.872803 0.919159
0.874237 0.872803 0.919159
0.924500 0.872803 0.919159
0.969269 0.872803 0.919159
0.000000 1.000000 0.919159
0.533600 1.000000 0.919159
0.660004 1.000000 0.919159
0.747437 1.000000 0.919159
0.816406 1.000000 0.919159
0.874237 1.000000 0.919159
0.924500 1.000000 0.919159
0.969269 1.000000 0.919159
0.000000 1.000000 0.919159
0.533600 1.000000 0.919159
0.660004 1.000000 0.919159
0.747437 1.000000 0.919159
0.816406 1.000000 0.919159
0.874237 1.000000 0.919159
0.924500 1.000000 0.919159
0.969269 1.000000 0.919159
0.000000 0.000000 0.951965
0.533600 0.000000 0.951965
0.660004 0.000000 0.951965
0.747437 0.000000 0.951965
0.816406 0.000000 0.951965
0.874237 0.000000 0.951965
0.924500 0.000000 0.951965
0.969269 0.000000 0.951965
0.000000 0.180145 0.951965
0.533600 0.180145 0.951965
0.660004 0.180145 0.951965
0.747437 0.180145 0.951965
0.816406 0.180145 0.951965
0.874237 0.180145 0.951965
0.924500 0.180145 0.951965
0.969269 0.180145 0.951965
0.000000 0.355408 0.951965
0.533600 0.355408 0.951965
0.660004 0.355408 0.951965
0.747437 0.355408 0.951965
0.816406 0.355408 0.951965
0.874237 0.355408 0.951965
0.924500 0.355408 0.951965
0.969269 0.355408 0.951965
0.000000 0.528900 0.951965
0.533600 0.528900 0.951965
0.660004 0.528900 0.951965
0.747437 0.528900 0.951965
0.816406 0.528900 0.951965
0.874237 0.528900 0.951965
0.924500 0.528900 0.951965
0.969269 0.528900 0.951965
0.000000 0.701294 0.951965
0.533600 0.701294 0.951965
0.660004 0.701294 0.951965
0.747437 0.701294 0.951965
0.816406 0.701294 0.951965
0.874237 0.701294 0.951965
0.924500 0.701294 0.951965
0.969269 0.701294 0.951965
0.000000 0.872803 0.951965
0.533600 0.872803 0.951965
0.660004 0.872803 0.951965
0.747437 0.872803 0.951965
0.816406 0.872803 0.951965
0.874237 0.872803 0.951965
0.924500 0.872803 0.951965
0.969269 0.872803 0.951965
0.000000 1.000000 0.951965
0.533600 1.000000 0.951965
0.660004 1.000000 0.951965
0.747437 1.000000 0.951965
0.816406 1.000000 0.951965
0.874237 1.000000 0.951965
0.924500 1.000000 0.951965
0.969269 1.000000 0.951965
0.000000 1.000000 0.951965
0.533600 1.000000 0.951965
0.660004 1.000000 0.951965
0.747437 1.000000 0.951965
0.816406 1.000000 0.951965
0.874237 1.000000 0.951965
0.924500 1.000000 0.951965
0.969269 1.000000 0.951965
0.000000 0.000000 0.980621
0.533600 0.000000 0.980621
0.660004 0.000000 0.980621
0.747437 0.000000 0.980621
0.816406 0.000000 0.980621
0.874237 0.000000 0.980621
0.924500 0.000000 0.980621
0.969269 0.000000 0.980621
0.000000 0.180145 0.980621
0.533600 0.180145 0.980621
0.660004 0.180145 0.980621
0.747437 0.180145 0.980621
0.816406 0.180145 0.980621
0.874237 0.180145 0.980621
0.924500 0.180145 0.980621
0.969269 0.180145 0.980621
0.000000 0.355408 0.980621
0.533600 0.355408 0.980621
0.660004 0.355408 0.980621
0.747437 0.355408 0.980621
0.816406 0.355408 0.980621
0.874237 0.355408 0.980621
0.924500 0.355408 0.980621
0.969269 0.355408 0.980621
0.000000 0.528900 0.980621
0.533600 0.528900 0.980621
0.660004 0.528900 0.980621
0.747437 0.528900 0.980621
0.816406 0.528900 0.980621
0.874237 0.528900 0.980621
0.924500 0.528900 0.980621
0.969269 0.528900 0.980621
0.000000 0.701294 0.980621
0.533600 0.701294 0.980621
0.660004 0.701294 0.980621
0.747437 0.701294 0.980621
0.816406 0.701294 0.980621
0.874237 0.701294 0.980621
0.924500 0.701294 0.980621
0.969269 0.701294 0.980621
0.000000 0.872803 0.980621
0.533600 0.872803 0.980621
0.660004 0.872803 0.980621
0.747437 0.872803 0.980621
0.816406 0.872803 0.980621
0.874237 0.872803 0.980621
0.924500 0.872803 0.980621
0.969269 0.872803 0.980621
0.000000 1.000000 0.980621
0.533600 1.000000 0.980621
0.660004 1.000000 0.980621
0.747437 1.000000 0.980621
0.816406 1.000000 0.980621
0.874237 1.000000 0.980621
0.924500 1.000000 0.980621
0.969269 1.000000 0.980621
0.000000 1.000000 0.980621
0.533600 1.000000 0.980621
0.660004 1.000000 0.980621
0.747437 1.000000 0.980621
0.816406 1.000000 0.980621
0.874237 1.000000 0.980621
0.924500 1.000000 0.980621
0.969269 1.000000 0.980621
