projects/Week3-Starter-Fixed/res/luts/mycustom.CUBE
#Created by: Adobe Photoshop Export Color Lookup Plugin
TITLE "mycustom"
#LUT size
LUT_3D_SIZE 32
#data domain
DOMAIN_MIN 0.0 0.0 0.0
DOMAIN_MAX 1.0 1.0 1.0
#LUT data points
0.000000 0.000000 0.000000
0.263000 0.000000 0.000000
0.423828 0.000000 0.000000
0.488525 0.000000 0.000000
0.533600 0.000000 0.000000
0.571381 0.000000 0.000000
0.604248 0.000000 0.000000
0.633514 0.000000 0.000000
0.660004 0.000000 0.000000
0.684296 0.000000 0.000000
0.706757 0.000000 0.000000
0.727722 0.000000 0.000000
0.747437 0.000000 0.000000
0.765991 0.000000 0.000000
0.783600 0.000000 0.000000
0.800385 0.000000 0.000000
0.816406 0.000000 0.000000
0.831696 0.000000 0.000000
0.846436 0.000000 0.000000
0.860565 0.000000 0.000000
0.874237 0.000000 0.000000
0.887390 0.000000 0.000000
0.900177 0.000000 0.000000
0.912506 0.000000 0.000000
0.924500 0.000000 0.000000
0.936157 0.000000 0.000000
0.947479 0.000000 0.000000
0.958527 0.000000 0.000000
0.969269 0.000000 0.000000
0.979767 0.000000 0.000000
0.989990 0.000000 0.000000
1.000000 0.000000 0.000000
0.000000 0.046234 0.000000
0.263000 0.046234 0.000000
0.423828 0.046234 0.000000
0.488525 0.046234 0.000000
0.533600 0.046234 0.000000
0.571381 0.046234 0.000000
0.604248 0.046234 0.000000
0.633514 0.046234 0.000000
0.660004 0.046234 0.000000
0.684296 0.046234 0.000000
0.706757 0.046234 0.000000
0.727722 0.046234 0.000000
0.747437 0.046234 0.000000
0.765991 0.046234 0.000000
0.783600 0.046234 0.000000
0.800385 0.046234 0.000000
0.816406 0.046234 0.000000
0.831696 0.046234 0.000000
0.846436 0.046234 0.000000
0.860565 0.046234 0.000000
0.874237 0.046234 0.000000
0.887390 0.046234 0.000000
0.900177 0.046234 0.000000
0.912506 0.046234 0.000000
0.924500 0.046234 0.000000
0.936157 0.046234 0.000000
0.947479 0.046234 0.000000
0.958527 0.046234 0.000000
0.969269 0.046234 0.000000
0.979767 0.046234 0.000000
0.989990 0.046234 0.000000
1.000000 0.046234 0.000000
0.000000 0.091309 0.000000
0.263000 0.091309 0.000000
0.423828 0.091309 0.000000
0.488525 0.091309 0.000000
0.533600 0.091309 0.000000
0.571381 0.091309 0.000000
0.604248 0.091309 0.000000
0.633514 0.091309 0.000000
0.660004 0.091309 0.000000
0.684296 0.091309 0.000000
0.706757 0.091309 0.000000
0.727722 0.091309 0.000000
0.747437 0.091309 0.000000
0.765991 0.091309 0.000000
0.783600 0.091309 0.000000
0.800385 0.091309 0.000000
0.816406 0.091309 0.000000
0.831696 0.091309 0.000000
0.846436 0.091309 0.000000
0.860565 0.091309 0.000000
0.874237 0.091309 0.000000
0.887390 0.091309 0.000000
0.900177 0.091309 0.000000
0.912506 0.091309 0.000000
0.924500 0.091309 0.000000
0.936157 0.091309 0.000000
0.947479 0.091309 0.000000
0.958527 0.091309 0.000000
0.969269 0.091309 0.000000
0.979767 0.091309 0.000000
0.989990 0.091309 0.000000
1.000000 0.091309 0.000000
0.000000 0.135864 0.000000
0.263000 0.135864 0.000000
0.423828 0.135864 0.000000
0.488525 0.135864 0.000000
0.533600 0.135864 0.000000
0.571381 0.135864 0.000000
0.604248 0.135864 0.000000
0.633514 0.135864 0.000000
0.660004 0.135864 0.000000
0.684296 0.135864 0.000000
0.706757 0.135864 0.000000
0.727722 0.135864 0.000000
0.747437 0.135864 0.000000
0.765991 0.135864 0.000000
0.783600 0.135864 0.000000
0.800385 0.135864 0.000000
0.816406 0.135864 0.000000
0.831696 0.135864 0.000000
0.846436 0.135864 0.000000
0.860565 0.135864 0.000000
0.874237 0.135864 0.000000
0.887390 0.135864 0.000000
0.900177 0.135864 0.000000
0.912506 0.135864 0.000000
0.924500 0.135864 0.000000
0.936157 0.135864 0.000000
0.947479 0.135864 0.000000
0.958527 0.135864 0.000000
0.969269 0.135864 0.000000
0.979767 0.135864 0.000000
0.989990 0.135864 0.000000
1.000000 0.135864 0.000000
0.000000 0.180145 0.000000
0.263000 0.180145 0.000000
0.423828 0.180145 0.000000
0.488525 0.180145 0.000000
0.533600 0.180145 0.000000
0.571381 0.180145 0.000000
0.604248 0.180145 0.000000
0.633514 0.180145 0.000000
0.660004 0.180145 0.000000
0.684296 0.180145 0.000000
0.706757 0.180145 0.000000
0.727722 0.180145 0.000000
0.747437 0.180145 0.000000
0.765991 0.180145 0.000000
0.783600 0.180145 0.000000
0.800385 0.180145 0.000000
0.816406 0.180145 0.000000
0.831696 0.180145 0.000000
0.846436 0.180145 0.000000
0.860565 0.180145 0.000000
0.874237 0.180145 0.000000
0.887390 0.180145 0.000000
0.900177 0.180145 0.000000
0.912506 0.180145 0.000000
0.924500 0.180145 0.000000
0.936157 0.180145 0.000000
0.947479 0.180145 0.000000
0.958527 0.180145 0.000000
0.969269 0.180145 0.000000
0.979767 0.180145 0.000000
0.989990 0.180145 0.000000
1.000000 0.180145 0.000000
0.000000 0.224213 0.000000
0.263000 0.224213 0.000000
0.423828 0.224213 0.000000
0.488525 0.224213 0.000000
0.533600 0.224213 0.000000
0.571381 0.224213 0.000000
0.604248 0.224213 0.000000
0.633514 0.224213 0.000000
0.660004 0.224213 0.000000
0.684296 0.224213 0.000000
0.706757 0.224213 0.000000
0.727722 0.224213 0.000000
0.747437 0.224213 0.000000
0.765991 0.224213 0.000000
0.783600 0.224213 0.000000
0.800385 0.224213 0.000000
0.816406 0.224213 0.000000
0.831696 0.224213 0.000000
0.846436 0.224213 0.000000
0.860565 0.224213 0.000000
0.874237 0.224213 0.000000
0.887390 0.224213 0.000000
0.900177 0.224213 0.000000
0.912506 0.224213 0.000000
0.924500 0.224213 0.000000
0.936157 0.224213 0.000000
0.947479 0.224213 0.000000
0.958527 0.224213 0.000000
0.969269 0.224213 0.000000
0.979767 0.224213 0.000000
0.989990 0.224213 0.000000
1.000000 0.224213 0.000000
0.000000 0.268127 0.000000
0.263000 0.268127 0.000000
0.423828 0.268127 0.000000
0.488525 0.268127 0.000000
0.533600 0.268127 0.000000
0.571381 0.268127 0.000000
0.604248 0.268127 0.000000
0.633514 0.268127 0.000000
0.660004 0.268127 0.000000
0.684296 0.268127 0.000000
0.706757 0.268127 0.000000
0.727722 0.268127 0.000000
0.747437 0.268127 0.000000
0.765991 0.268127 0.000000
0.783600 0.268127 0.000000
0.800385 0.268127 0.000000
0.816406 0.268127 0.000000
0.831696 0.268127 0.000000
0.846436 0.268127 0.000000
0.860565 0.268127 0.000000
0.874237 0.268127 0.000000
0.887390 0.268127 0.000000
0.900177 0.268127 0.000000
0.912506 0.268127 0.000000
0.924500 0.268127 0.000000
0.936157 0.268127 0.000000
0.947479 0.268127 0.000000
0.958527 0.268127 0.000000
0.969269 0.268127 0.000000
0.979767 0.268127 0.000000
0.989990 0.268127 0.000000
1.000000 0.268127 0.000000
0.000000 0.311829 0.000000
0.263000 0.311829 0.000000
0.423828 0.311829 0.000000
0.488525 0.311829 0.000000
0.533600 0.311829 0.000000
0.571381 0.311829 0.000000
0.604248 0.311829 0.000000
0.633514 0.311829 0.000000
0.660004 0.311829 0.000000
0.684296 0.311829 0.000000
0.706757 0.311829 0.000000
0.727722 0.311829 0.000000
0.747437 0.311829 0.000000
0.765991 0.311829 0.000000
0.783600 0.311829 0.000000
0.800385 0.311829 0.000000
0.816406 0.311829 0.000000
0.831696 0.311829 0.000000
0.846436 0.311829 0.000000
0.860565 0.311829 0.000000
0.874237 0.311829 0.000000
0.887390 0.311829 0.000000
0.900177 0.311829 0.000000
0.912506 0.311829 0.000000
0.924500 0.311829 0.000000
0.936157 0.311829 0.000000
0.947479 0.311829 0.000000
0.958527 0.311829 0.000000
0.969269 0.311829 0.000000
0.979767 0.311829 0.000000
0.989990 0.311829 0.000000
1.000000 0.311829 0.000000
0.000000 0.355408 0.000000
0.263000 0.355408 0.000000
0.423828 0.355408 0.000000
0.488525 0.355408 0.000000
0.533600 0.355408 0.000000
0.571381 0.355408 0.000000
0.604248 0.355408 0.000000
0.633514 0.355408 0.000000
0.660004 0.355408 0.000000
0.684296 0.355408 0.000000
0.706757 0.355408 0.000000
0.727722 0.355408 0.000000
0.747437 0.355408 0.000000
0.765991 0.355408 0.000000
0.783600 0.355408 0.000000
0.800385 0.355408 0.000000
0.816406 0.355408 0.000000
0.831696 0.355408 0.000000
0.846436 0.355408 0.000000
0.860565 0.355408 0.000000
0.874237 0.355408 0.000000
0.887390 0.355408 0.000000
0.900177 0.355408 0.000000
0.912506 0.355408 0.000000
0.924500 0.355408 0.000000
0.936157 0.355408 0.000000
0.947479 0.355408 0.000000
0.958527 0.355408 0.000000
0.969269 0.355408 0.000000
0.979767 0.355408 0.000000
0.989990 0.355408 0.000000
1.000000 0.355408 0.000000
0.000000 0.398895 0.000000
0.263000 0.398895 0.000000
0.423828 0.398895 0.000000
0.488525 0.398895 0.000000
0.533600 0.398895 0.000000
0.571381 0.398895 0.000000
0.604248 0.398895 0.000000
0.633514 0.398895 0.000000
0.660004 0.398895 0.000000
0.684296 0.398895 0.000000
0.706757 0.398895 0.000000
0.727722 0.398895 0.000000
0.747437 0.398895 0.000000
0.765991 0.398895 0.000000
0.783600 0.398895 0.000000
0.800385 0.398895 0.000000
0.816406 0.398895 0.000000
0.831696 0.398895 0.000000
0.846436 0.398895 0.000000
0.860565 0.398895 0.000000
0.874237 0.398895 0.000000
0.887390 0.398895 0.000000
0.900177 0.398895 0.000000
0.912506 0.398895 0.000000
0.924500 0.398895 0.000000
0.936157 0.398895 0.000000
0.947479 0.398895 0.000000
0.958527 0.398895 0.000000
0.969269 0.398895 0.000000
0.979767 0.398895 0.000000
0.989990 0.398895 0.000000
1.000000 0.398895 0.000000
0.000000 0.442352 0.000000
0.263000 0.442352 0.000000
0.423828 0.442352 0.000000
0.488525 0.442352 0.000000
0.533600 0.442352 0.000000
0.571381 0.442352 0.000000
0.604248 0.442352 0.000000
0.633514 0.442352 0.000000
0.660004 0.442352 0.000000
0.684296 0.442352 0.000000
0.706757 0.442352 0.000000
0.727722 0.442352 0.000000
0.747437 0.442352 0.000000
0.765991 0.442352 0.000000
0.783600 0.442352 0.000000
0.800385 0.442352 0.000000
0.816406 0.442352 0.000000
0.831696 0.442352 0.000000
0.846436 0.442352 0.000000
0.860565 0.442352 0.000000
0.874237 0.442352 0.000000
0.887390 0.442352 0.000000
0.900177 0.442352 0.000000
0.912506 0.442352 0.000000
0.924500 0.442352 0.000000
0.936157 0.442352 0.000000
0.947479 0.442352 0.000000
0.958527 0.442352 0.000000
0.969269 0.442352 0.000000
0.979767 0.442352 0.000000
0.989990 0.442352 0.000000
1.000000 0.442352 0.000000
0.000000 0.485657 0.000000
0.263000 0.485657 0.000000
0.423828 0.485657 0.000000
0.488525 0.485657 0.000000
0.533600 0.485657 0.000000
0.571381 0.485657 0.000000
0.604248 0.485657 0.000000
0.633514 0.485657 0.000000
0.660004 0.485657 0.000000
0.684296 0.485657 0.000000
0.706757 0.485657 0.000000
0.727722 0.485657 0.000000
0.747437 0.485657 0.000000
0.765991 0.485657 0.000000
0.783600 0.485657 0.000000
0.800385 0.485657 0.000000
0.816406 0.485657 0.000000
0.831696 0.485657 0.000000
0.846436 0.485657 0.000000
0.860565 0.485657 0.000000
0.874237 0.485657 0.000000
0.887390 0.485657 0.000000
0.900177 0.485657 0.000000
0.912506 0.485657 0.000000
0.924500 0.485657 0.000000
0.936157 0.485657 0.000000
0.947479 0.485657 0.000000
0.958527 0.485657 0.000000
0.969269 0.485657 0.000000
0.979767 0.485657 0.000000
0.989990 0.485657 0.000000
1.000000 0.485657 0.000000
0.000000 0.528900 0.000000
0.263000 0.528900 0.000000
0.423828 0.528900 0.000000
0.488525 0.528900 0.000000
0.533600 0.528900 0.000000
0.571381 0.528900 0.000000
0.604248 0.528900 0.000000
0.633514 0.528900 0.000000
0.660004 0.528900 0.000000
0.684296 0.528900 0.000000
0.706757 0.528900 0.000000
0.727722 0.528900 0.000000
0.747437 0.528900 0.000000
0.765991 0.528900 0.000000
0.783600 0.528900 0.000000
0.800385 0.528900 0.000000
0.816406 0.528900 0.000000
0.831696 0.528900 0.000000
0.846436 0.528900 0.000000
0.860565 0.528900 0.000000
0.874237 0.528900 0.000000
0.887390 0.528900 0.000000
0.900177 0.528900 0.000000
0.912506 0.528900 0.000000
0.924500 0.528900 0.000000
0.936157 0.528900 0.000000
0.947479 0.528900 0.000000
0.958527 0.528900 0.000000
0.969269 0.528900 0.000000
0.979767 0.528900 0.000000
0.989990 0.528900 0.000000
1.000000 0.528900 0.000000
0.000000 0.572083 0.000000
0.263000 0.572083 0.000000
0.423828 0.572083 0.000000
0.488525 0.572083 0.000000
0.533600 0.572083 0.000000
0.571381 0.572083 0.000000
0.604248 0.572083 0.000000
0.633514 0.572083 0.000000
0.660004 0.572083 0.000000
0.684296 0.572083 0.000000
0.706757 0.572083 0.000000
0.727722 0.572083 0.000000
0.747437 0.572083 0.000000
0.765991 0.572083 0.000000
0.783600 0.572083 0.000000
0.800385 0.572083 0.000000
0.816406 0.572083 0.000000
0.831696 0.572083 0.000000
0.846436 0.572083 0.000000
0.860565 0.572083 0.000000
0.874237 0.572083 0.000000
0.887390 0.572083 0.000000
0.900177 0.572083 0.000000
0.912506 0.572083 0.000000
0.924500 0.572083 0.000000
0.936157 0.572083 0.000000
0.947479 0.572083 0.000000
0.958527 0.572083 0.000000
0.969269 0.572083 0.000000
0.979767 0.572083 0.000000
0.989990 0.572083 0.000000
1.000000 0.572083 0.000000
0.000000 0.615265 0.000000
0.263000 0.615265 0.000000
0.423828 0.615265 0.000000
0.488525 0.615265 0.000000
0.533600 0.615265 0.000000
0.571381 0.615265 0.000000
0.604248 0.615265 0.000000
0.633514 0.615265 0.000000
0.660004 0.615265 0.000000
0.684296 0.615265 0.000000
0.706757 0.615265 0.000000
0.727722 0.615265 0.000000
0.747437 0.615265 0.000000
0.765991 0.615265 0.000000
0.783600 0.615265 0.000000
0.800385 0.615265 0.000000
0.816406 0.615265 0.000000
0.831696 0.615265 0.000000
0.846436 0.615265 0.000000
0.860565 0.615265 0.000000
0.874237 0.615265 0.000000
0.887390 0.615265 0.000000
0.900177 0.615265 0.000000
0.912506 0.615265 0.000000
0.924500 0.615265 0.000000
0.936157 0.615265 0.000000
0.947479 0.615265 0.000000
0.958527 0.615265 0.000000
0.969269 0.615265 0.000000
0.979767 0.615265 0.000000
0.989990 0.615265 0.000000
1.000000 0.615265 0.000000
0.000000 0.658295 0.000000
0.263000 0.658295 0.000000
0.423828 0.658295 0.000000
0.488525 0.658295 0.000000
0.533600 0.658295 0.000000
0.571381 0.658295 0.000000
0.604248 0.658295 0.000000
0.633514 0.658295 0.000000
0.660004 0.658295 0.000000
0.684296 0.658295 0.000000
0.706757 0.658295 0.000000
0.727722 0.658295 0.000000
0.747437 0.658295 0.000000
0.765991 0.658295 0.000000
0.783600 0.658295 0.000000
0.800385 0.658295 0.000000
0.816406 0.658295 0.000000
0.831696 0.658295 0.000000
0.846436 0.658295 0.000000
0.860565 0.658295 0.000000
0.874237 0.658295 0.000000
0.887390 0.658295 0.000000
0.900177 0.658295 0.000000
0.912506 0.658295 0.000000
0.924500 0.658295 0.000000
0.936157 0.658295 0.000000
0.947479 0.658295 0.000000
0.958527 0.658295 0.000000
0.969269 0.658295 0.000000
0.979767 0.658295 0.000000
0.989990 0.658295 0.000000
1.000000 0.658295 0.000000
0.000000 0.701294 0.000000
0.263000 0.701294 0.000000
0.423828 0.701294 0.000000
0.488525 0.701294 0.000000
0.533600 0.701294 0.000000
0.571381 0.701294 0.000000
0.604248 0.701294 0.000000
0.633514 0.701294 0.000000
0.660004 0.701294 0.000000
0.684296 0.701294 0.000000
0.706757 0.701294 0.000000
0.727722 0.701294 0.000000
0.747437 0.701294 0.000000
0.765991 0.701294 0.000000
0.783600 0.701294 0.000000
0.800385 0.701294 0.000000
0.816406 0.701294 0.000000
0.831696 0.701294 0.000000
0.846436 0.701294 0.000000
0.860565 0.701294 0.000000
0.874237 0.701294 0.000000
0.887390 0.701294 0.000000
0.900177 0.701294 0.000000
0.912506 0.701294 0.000000
0.924500 0.701294 0.000000
0.936157 0.701294 0.000000
0.947479 0.701294 0.000000
0.958527 0.701294 0.000000
0.969269 0.701294 0.000000
0.979767 0.701294 0.000000
0.989990 0.701294 0.000000
1.000000 0.701294 0.000000
0.000000 0.744263 0.000000
0.263000 0.744263 0.000000
0.423828 0.744263 0.000000
0.488525 0.744263 0.000000
0.533600 0.744263 0.000000
0.571381 0.744263 0.000000
0.604248 0.744263 0.000000
0.633514 0.744263 0.000000
0.660004 0.744263 0.000000
0.684296 0.744263 0.000000
0.706757 0.744263 0.000000
0.727722 0.744263 0.000000
0.747437 0.744263 0.000000
0.765991 0.744263 0.000000
0.783600 0.744263 0.000000
0.800385 0.744263 0.000000
0.816406 0.744263 0.000000
0.831696 0.744263 0.000000
0.846436 0.744263 0.000000
0.860565 0.744263 0.000000
0.874237 0.744263 0.000000
0.887390 0.744263 0.000000
0.900177 0.744263 0.000000
0.912506 0.744263 0.000000
0.924500 0.744263 0.000000
0.936157 0.744263 0.000000
0.947479 0.744263 0.000000
0.958527 0.744263 0.000000
0.969269 0.744263 0.000000
0.979767 0.744263 0.000000
0.989990 0.744263 0.000000
1.000000 0.744263 0.000000
0.000000 0.787140 0.000000
0.263000 0.787140 0.000000
0.423828 0.787140 0.000000
0.488525 0.787140 0.000000
0.533600 0.787140 0.000000
0.571381 0.787140 0.000000
0.604248 0.787140 0.000000
0.633514 0.787140 0.000000
0.660004 0.787140 0.000000
0.684296 0.787140 0.000000
0.706757 0.787140 0.000000
0.727722 0.787140 0.000000
0.747437 0.787140 0.000000
0.765991 0.787140 0.000000
0.783600 0.787140 0.000000
0.800385 0.787140 0.000000
0.816406 0.787140 0.000000
0.831696 0.787140 0.000000
0.846436 0.787140 0.000000
0.860565 0.787140 0.000000
0.874237 0.787140 0.000000
0.887390 0.787140 0.000000
0.900177 0.787140 0.000000
0.912506 0.787140 0.000000
0.924500 0.787140 0.000000
0.936157 0.787140 0.000000
0.947479 0.787140 0.000000
0.958527 0.787140 0.000000
0.969269 0.787140 0.000000
0.979767 0.787140 0.000000
0.989990 0.787140 0.000000
1.000000 0.787140 0.000000
0.000000 0.829987 0.000000
0.263000 0.829987 0.000000
0.423828 0.829987 0.000000
0.488525 0.829987 0.000000
0.533600 0.829987 0.000000
0.571381 0.829987 0.000000
0.604248 0.829987 0.000000
0.633514 0.829987 0.000000
0.660004 0.829987 0.000000
0.684296 0.829987 0.000000
0.706757 0.829987 0.000000
0.727722 0.829987 0.000000
0.747437 0.829987 0.000000
0.765991 0.829987 0.000000
0.783600 0.829987 0.000000
0.800385 0.829987 0.000000
0.816406 0.829987 0.000000
0.831696 0.829987 0.000000
0.846436 0.829987 0.000000
0.860565 0.829987 0.000000
0.874237 0.829987 0.000000
0.887390 0.829987 0.000000
0.900177 0.829987 0.000000
0.912506 0.829987 0.000000
0.924500 0.829987 0.000000
0.936157 0.829987 0.000000
0.947479 0.829987 0.000000
0.958527 0.829987 0.000000
0.969269 0.829987 0.000000
0.979767 0.829987 0.000000
0.989990 0.829987 0.000000
1.000000 0.829987 0.000000
0.000000 0.872803 0.000000
0.263000 0.872803 0.000000
0.423828 0.872803 0.000000
0.488525 0.872803 0.000000
0.533600 0.872803 0.000000
0.571381 0.872803 0.000000
0.604248 0.872803 0.000000
0.633514 0.872803 0.000000
0.660004 0.872803 0.000000
0.684296 0.872803 0.000000
0.706757 0.872803 0.000000
0.727722 0.872803 0.000000
0.747437 0.872803 0.000000
0.765991 0.872803 0.000000
0.783600 0.872803 0.000000
0.800385 0.872803 0.000000
0.816406 0.872803 0.000000
0.831696 0.872803 0.000000
0.846436 0.872803 0.000000
0.860565 0.872803 0.000000
0.874237 0.872803 0.000000
0.887390 0.872803 0.000000
0.900177 0.872803 0.000000
0.912506 0.872803 0.000000
0.924500 0.872803 0.000000
0.936157 0.872803 0.000000
0.947479 0.872803 0.000000
0.958527 0.872803 0.000000
0.969269 0.872803 0.000000
0.979767 0.872803 0.000000
0.989990 0.872803 0.000000
1.000000 0.872803 0.000000
0.000000 0.915619 0.000000
0.263000 0.915619 0.000000
0.423828 0.915619 0.000000
0.488525 0.915619 0.000000
0.533600 0.915619 0.000000
0.571381 0.915619 0.000000
0.604248 0.915619 0.000000
0.633514 0.915619 0.000000
0.660004 0.915619 0.000000
0.684296 0.915619 0.000000
0.706757 0.915619 0.000000
0.727722 0.915619 0.000000
0.747437 0.915619 0.000000
0.765991 0.915619 0.000000
0.783600 0.915619 0.000000
0.800385 0.915619 0.000000
0.816406 0.915619 0.000000
0.831696 0.915619 0.000000
0.846436 0.915619 0.000000
0.860565 0.915619 0.000000
0.874237 0.915619 0.000000
0.887390 0.915619 0.000000
0.900177 0.915619 0.000000
0.912506 0.915619 0.000000
0.924500 0.915619 0.000000
0.936157 0.915619 0.000000
0.947479 0.915619 0.000000
0.958527 0.915619 0.000000
0.969269 0.915619 0.000000
0.979767 0.915619 0.000000
0.989990 0.915619 0.000000
1.000000 0.915619 0.000000
0.000000 0.958313 0.000000
0.263000 0.958313 0.000000
0.423828 0.958313 0.000000
0.488525 0.958313 0.000000
0.533600 0.958313 0.000000
0.571381 0.958313 0.000000
0.604248 0.958313 0.000000
0.633514 0.958313 0.000000
0.660004 0.958313 0.000000
0.684296 0.958313 0.000000
0.706757 0.958313 0.000000
0.727722 0.958313 0.000000
0.747437 0.958313 0.000000
0.765991 0.958313 0.000000
0.783600 0.958313 0.000000
0.800385 0.958313 0.000000
0.816406 0.958313 0.000000
0.831696 0.958313 0.000000
0.846436 0.958313 0.000000
0.860565 0.958313 0.000000
0.874237 0.958313 0.000000
0.887390 0.958313 0.000000
0.900177 0.958313 0.000000
0.912506 0.958313 0.000000
0.924500 0.958313 0.000000
0.936157 0.958313 0.000000
0.947479 0.958313 0.000000
0.958527 0.958313 0.000000
0.969269 0.958313 0.000000
0.979767 0.958313 0.000000
0.989990 0.958313 0.000000
1.000000 0.958313 0.000000
0.000000 1.000000 0.000000
0.263000 1.000000 0.000000
0.423828 1.000000 0.000000
0.488525 1.000000 0.000000
0.533600 1.000000 0.000000
0.571381 1.000000 0.000000
0.604248 1.000000 0.000000
0.633514 1.000000 0.000000
0.660004 1.000000 0.000000
0.684296 1.000000 0.000000
0.706757 1.000000 0.000000
0.727722 1.000000 0.000000
0.747437 1.000000 0.000000
0.765991 1.000000 0.000000
0.783600 1.000000 0.000000
0.800385 1.000000 0.000000
0.816406 1.000000 0.000000
0.831696 1.000000 0.000000
0.846436 1.000000 0.000000
0.860565 1.000000 0.000000
0.874237 1.000000 0.000000
0.887390 1.000000 0.000000
0.900177 1.000000 0.000000
0.912506 1.000000 0.000000
0.924500 1.000000 0.000000
0.936157 1.000000 0.000000
0.947479 1.000000 0.000000
0.958527 1.000000 0.000000
0.969269 1.000000 0.000000
0.979767 1.000000 0.000000
0.989990 1.000000 0.000000
1.000000 1.000000 0.000000
0.000000 1.000000 0.000000
0.263000 1.000000 0.000000
0.423828 1.000000 0.000000
0.488525 1.000000 0.000000
0.533600 1.000000 0.000000
0.571381 1.000000 0.000000
0.604248 1.000000 0.000000
0.633514 1.000000 0.000000
0.660004 1.000000 0.000000
0.684296 1.000000 0.000000
0.706757 1.000000 0.000000
0.727722 1.000000 0.000000
0.747437 1.000000 0.000000
0.765991 1.000000 0.000000
0.783600 1.000000 0.000000
0.800385 1.000000 0.000000
0.816406 1.000000 0.000000
0.831696 1.000000 0.000000
0.846436 1.000000 0.000000
0.860565 1.000000 0.000000
0.874237 1.000000 0.000000
0.887390 1.000000 0.000000
0.900177 1.000000 0.000000
0.912506 1.000000 0.000000
0.924500 1.000000 0.000000
0.936157 1.000000 0.000000
0.947479 1.000000 0.000000
0.958527 1.000000 0.000000
0.969269 1.000000 0.000000
0.979767 1.000000 0.000000
0.989990 1.000000 0.000000
1.000000 1.000000 0.000000
0.000000 1.000000 0.000000
0.263000 1.000000 0.000000
0.423828 1.000000 0.000000
0.488525 1.000000 0.000000
0.533600 1.000000 0.000000
0.571381 1.000000 0.000000
0.604248 1.000000 0.000000
0.633514 1.000000 0.000000
0.660004 1.000000 0.000000
0.684296 1.000000 0.000000
0.706757 1.000000 0.000000
0.727722 1.000000 0.000000
0.747437 1.000000 0.000000
0.765991 1.000000 0.000000
0.783600 1.000000 0.000000
0.800385 1.000000 0.000000
0.816406 1.000000 0.000000
0.831696 1.000000 0.000000
0.846436 1.000000 0.000000
0.860565 1.000000 0.000000
0.874237 1.000000 0.000000
0.887390 1.000000 0.000000
0.900177 1.000000 0.000000
0.912506 1.000000 0.000000
0.924500 1.000000 0.000000
0.936157 1.000000 0.000000
0.947479 1.000000 0.000000
0.958527 1.000000 0.000000
0.969269 1.000000 0.000000
0.979767 1.000000 0.000000
0.989990 1.000000 0.000000
1.000000 1.000000 0.000000
0.000000 1.000000 0.000000
0.263000 1.000000 0.000000
0.423828 1.000000 0.000000
0.488525 1.000000 0.000000
0.533600 1.000000 0.000000
0.571381 1.000000 0.000000
0.604248 1.000000 0.000000
0.633514 1.000000 0.000000
0.660004 1.000000 0.000000
0.684296 1.000000 0.000000
0.706757 1.000000 0.000000
0.727722 1.000000 0.000000
0.747437 1.000000 0.000000
0.765991 1.000000 0.000000
0.783600 1.000000 0.000000
0.800385 1.000000 0.000000
0.816406 1.000000 0.000000
0.831696 1.000000 0.000000
0.846436 1.000000 0.000000
0.860565 1.000000 0.000000
0.874237 1.000000 0.000000
0.887390 1.000000 0.000000
0.900177 1.000000 0.000000
0.912506 1.000000 0.000000
0.924500 1.000000 0.000000
0.936157 1.000000 0.000000
0.947479 1.000000 0.000000
0.958527 1.000000 0.000000
0.969269 1.000000 0.000000
0.979767 1.000000 0.000000
0.989990 1.000000 0.000000
1.000000 1.000000 0.000000
0.000000 1.000000 0.000000
0.263000 1.000000 0.000000
0.423828 1.000000 0.000000
0.488525 1.000000 0.000000
0.533600 1.000000 0.000000
0.571381 1.000000 0.000000
0.604248 1.000000 0.000000
0.633514 1.000000 0.000000
0.660004 1.000000 0.000000
0.684296 1.000000 0.000000
0.706757 1.000000 0.000000
0.727722 1.000000 0.000000
0.747437 1.000000 0.000000
0.765991 1.000000 0.000000
0.783600 1.000000 0.000000
0.800385 1.000000 0.000000
0.816406 1.000000 0.000000
0.831696 1.000000 0.000000
