Executable/luts/mycool.CUBE
#Created by: Adobe Photoshop Export Color Lookup Plugin
TITLE "mycool"
#LUT size
LUT_3D_SIZE 8
#data domain
#LUT data points
DOMAIN_MIN 0.000000 0.000000 0.000000
DOMAIN_MAX 0.903226 0.903226 0.903226
0.000000 0.000000 0.000000
0.008545 0.000000 0.000000
0.042847 0.000000 0.000000
0.110016 0.000000 0.000000
0.214783 0.000000 0.000000
0.360901 0.000000 0.000000
0.551483 0.000000 0.000000
0.789246 0.000000 0.000000
0.000000 0.067596 0.000000
0.008545 0.067596 0.000000
0.042847 0.067596 0.000000
0.110016 0.067596 0.000000
0.214783 0.067596 0.000000
0.360901 0.067596 0.000000
0.551483 0.067596 0.000000
0.789246 0.067596 0.000000
0.000000 0.168243 0.000000
0.008545 0.168243 0.000000
0.042847 0.168243 0.000000
0.110016 0.168243 0.000000
0.214783 0.168243 0.000000
0.360901 0.168243 0.000000
0.551483 0.168243 0.000000
0.789246 0.168243 0.000000
0.000000 0.286835 0.000000
0.008545 0.286835 0.000000
0.042847 0.286835 0.000000
0.110016 0.286835 0.000000
0.214783 0.286835 0.000000
0.360901 0.286835 0.000000
0.551483 0.286835 0.000000
0.789246 0.286835 0.000000
0.000000 0.418854 0.000000
0.008545 0.418854 0.000000
0.042847 0.418854 0.000000
0.110016 0.418854 0.000000
0.214783 0.418854 0.000000
0.360901 0.418854 0.000000
0.551483 0.418854 0.000000
0.789246 0.418854 0.000000
0.000000 0.561798 0.000000
0.008545 0.561798 0.000000
0.042847 0.561798 0.000000
0.110016 0.561798 0.000000
0.214783 0.561798 0.000000
0.360901 0.561798 0.000000
0.551483 0.561798 0.000000
0.789246 0.561798 0.000000
0.000000 0.714081 0.000000
0.008545 0.714081 0.000000
0.042847 0.714081 0.000000
0.110016 0.714081 0.000000
0.214783 0.714081 0.000000
0.360901 0.714081 0.000000
0.551483 0.714081 0.000000
0.789246 0.714081 0.000000
0.000000 0.874664 0.000000
0.008545 0.874664 0.000000
0.042847 0.874664 0.000000
0.110016 0.874664 0.000000
0.214783 0.874664 0.000000
0.360901 0.874664 0.000000
0.551483 0.874664 0.000000
0.789246 0.874664 0.000000
0.000000 0.000000 0.176361
0.008545 0.000000 0.176361
0.042847 0.000000 0.176361
0.110016 0.000000 0.176361
0.214783 0.000000 0.176361
0.360901 0.000000 0.176361
0.551483 0.000000 0.176361
0.789246 0.000000 0.176361
0.000000 0.067596 0.176361
0.008545 0.067596 0.176361
0.042847 0.067596 0.176361
0.110016 0.067596 0.176361
0.214783 0.067596 0.176361
0.360901 0.067596 0.176361
0.551483 0.067596 0.176361
0.789246 0.067596 0.176361
0.000000 0.168243 0.176361
0.008545 0.168243 0.176361
0.042847 0.168243 0.176361
0.110016 0.168243 0.176361
0.214783 0.168243 0.176361
0.360901 0.168243 0.176361
0.551483 0.168243 0.176361
0.789246 0.168243 0.176361
0.000000 0.286835 0.176361
0.008545 0.286835 0.176361
0.042847 0.286835 0.176361
0.110016 0.286835 0.176361
0.214783 0.286835 0.176361
0.360901 0.286835 0.176361
0.551483 0.286835 0.176361
0.789246 0.286835 0.176361
0.000000 0.418854 0.176361
0.008545 0.418854 0.176361
0.042847 0.418854 0.176361
0.110016 0.418854 0.176361
0.214783 0.418854 0.176361
0.360901 0.418854 0.176361
0.551483 0.418854 0.176361
0.789246 0.418854 0.176361
0.000000 0.561798 0.176361
0.008545 0.561798 0.176361
0.042847 0.561798 0.176361
0.110016 0.561798 0.176361
0.214783 0.561798 0.176361
0.360901 0.561798 0.176361
0.551483 0.561798 0.176361
0.789246 0.561798 0.176361
0.000000 0.714081 0.176361
0.008545 0.714081 0.176361
0.042847 0.714081 0.176361
0.110016 0.714081 0.176361
0.214783 0.714081 0.176361
0.360901 0.714081 0.176361
0.551483 0.714081 0.176361
0.789246 0.714081 0.176361
0.000000 0.874664 0.176361
0.008545 0.874664 0.176361
0.042847 0.874664 0.176361
0.110016 0.874664 0.176361
0.214783 0.874664 0.176361
0.360901 0.874664 0.176361
0.551483 0.874664 0.176361
0.789246 0.874664 0.176361
0.000000 0.000000 0.317291
0.008545 0.000000 0.317291
0.042847 0.000000 0.317291
0.110016 0.000000 0.317291
0.214783 0.000000 0.317291
0.360901 0.000000 0.317291
0.551483 0.000000 0.317291
0.789246 0.000000 0.317291
0.000000 0.067596 0.317291
0.008545 0.067596 0.317291
0.042847 0.067596 0.317291
0.110016 0.067596 0.317291
0.214783 0.067596 0.317291
0.360901 0.067596 0.317291
0.551483 0.067596 0.317291
0.789246 0.067596 0.317291
0.000000 0.168243 0.317291
0.008545 0.168243 0.317291
0.042847 0.168243 0.317291
0.110016 0.168243 0.317291
0.214783 0.168243 0.317291
0.360901 0.168243 0.317291
0.551483 0.168243 0.317291
0.789246 0.168243 0.317291
0.000000 0.286835 0.317291
0.008545 0.286835 0.317291
0.042847 0.286835 0.317291
0.110016 0.286835 0.317291
0.214783 0.286835 0.317291
0.360901 0.286835 0.317291
0.551483 0.286835 0.317291
0.789246 0.286835 0.317291
0.000000 0.418854 0.317291
0.008545 0.418854 0.317291
0.042847 0.418854 0.317291
0.110016 0.418854 0.317291
0.214783 0.418854 0.317291
0.360901 0.418854 0.317291
0.551483 0.418854 0.317291
0.789246 0.418854 0.317291
0.000000 0.561798 0.317291
0.008545 0.561798 0.317291
0.042847 0.561798 0.317291
0.110016 0.561798 0.317291
0.214783 0.561798 0.317291
0.360901 0.561798 0.317291
0.551483 0.561798 0.317291
0.789246 0.561798 0.317291
0.000000 0.714081 0.317291
0.008545 0.714081 0.317291
0.042847 0.714081 0.317291
0.110016 0.714081 0.317291
0.214783 0.714081 0.317291
0.360901 0.714081 0.317291
0.551483 0.714081 0.317291
0.789246 0.714081 0.317291
0.000000 0.874664 0.317291
0.008545 0.874664 0.317291
0.042847 0.874664 0.317291
0.110016 0.874664 0.317291
0.214783 0.874664 0.317291
0.360901 0.874664 0.317291
0.551483 0.874664 0.317291
0.789246 0.874664 0.317291
0.000000 0.000000 0.447388
0.008545 0.000000 0.447388
0.042847 0.000000 0.447388
0.110016 0.000000 0.447388
0.214783 0.000000 0.447388
0.360901 0.000000 0.447388
0.551483 0.000000 0.447388
0.789246 0.000000 0.447388
0.000000 0.067596 0.447388
0.008545 0.067596 0.447388
0.042847 0.067596 0.447388
0.110016 0.067596 0.447388
0.214783 0.067596 0.447388
0.360901 0.067596 0.447388
0.551483 0.067596 0.447388
0.789246 0.067596 0.447388
0.000000 0.168243 0.447388
0.008545 0.168243 0.447388
0.042847 0.168243 0.447388
0.110016 0.168243 0.447388
0.214783 0.168243 0.447388
0.360901 0.168243 0.447388
0.551483 0.168243 0.447388
0.789246 0.168243 0.447388
0.000000 0.286835 0.447388
0.008545 0.286835 0.447388
0.042847 0.286835 0.447388
0.110016 0.286835 0.447388
0.214783 0.286835 0.447388
0.360901 0.286835 0.447388
0.551483 0.286835 0.447388
0.789246 0.286835 0.447388
0.000000 0.418854 0.447388
0.008545 0.418854 0.447388
0.042847 0.418854 0.447388
0.110016 0.418854 0.447388
0.214783 0.418854 0.447388
0.360901 0.418854 0.447388
0.551483 0.418854 0.447388
0.789246 0.418854 0.447388
0.000000 0.561798 0.447388
0.008545 0.561798 0.447388
0.042847 0.561798 0.447388
0.110016 0.561798 0.447388
0.214783 0.561798 0.447388
0.360901 0.561798 0.447388
0.551483 0.561798 0.447388
0.789246 0.561798 0.447388
0.000000 0.714081 0.447388
0.008545 0.714081 0.447388
0.042847 0.714081 0.447388
0.110016 0.714081 0.447388
0.214783 0.714081 0.447388
0.360901 0.714081 0.447388
0.551483 0.714081 0.447388
0.789246 0.714081 0.447388
0.000000 0.874664 0.447388
0.008545 0.874664 0.447388
0.042847 0.874664 0.447388
0.110016 0.874664 0.447388
0.214783 0.874664 0.447388
0.360901 0.874664 0.447388
0.551483 0.874664 0.447388
0.789246 0.874664 0.447388
0.000000 0.000000 0.570923
0.008545 0.000000 0.570923
0.042847 0.000000 0.570923
0.110016 0.000000 0.570923
0.214783 0.000000 0.570923
0.360901 0.000000 0.570923
0.551483 0.000000 0.570923
0.789246 0.000000 0.570923
0.000000 0.067596 0.570923
0.008545 0.067596 0.570923
0.042847 0.067596 0.570923
0.110016 0.067596 0.570923
0.214783 0.067596 0.570923
0.360901 0.067596 0.570923
0.551483 0.067596 0.570923
0.789246 0.067596 0.570923
0.000000 0.168243 0.570923
0.008545 0.168243 0.570923
0.042847 0.168243 0.570923
0.110016 0.168243 0.570923
0.214783 0.168243 0.570923
0.360901 0.168243 0.570923
0.551483 0.168243 0.570923
0.789246 0.168243 0.570923
0.000000 0.286835 0.570923
0.008545 0.286835 0.570923
0.042847 0.286835 0.570923
0.110016 0.286835 0.570923
0.214783 0.286835 0.570923
0.360901 0.286835 0.570923
0.551483 0.286835 0.570923
0.789246 0.286835 0.570923
0.000000 0.418854 0.570923
0.008545 0.418854 0.570923
0.042847 0.418854 0.570923
0.110016 0.418854 0.570923
0.214783 0.418854 0.570923
0.360901 0.418854 0.570923
0.551483 0.418854 0.570923
0.789246 0.418854 0.570923
0.000000 0.561798 0.570923
0.008545 0.561798 0.570923
0.042847 0.561798 0.570923
0.110016 0.561798 0.570923
0.214783 0.561798 0.570923
0.360901 0.561798 0.570923
0.551483 0.561798 0.570923
0.789246 0.561798 0.570923
0.000000 0.714081 0.570923
0.008545 0.714081 0.570923
0.042847 0.714081 0.570923
0.110016 0.714081 0.570923
0.214783 0.714081 0.570923
0.360901 0.714081 0.570923
0.551483 0.714081 0.570923
0.789246 0.714081 0.570923
0.000000 0.874664 0.570923
0.008545 0.874664 0.570923
0.042847 0.874664 0.570923
0.110016 0.874664 0.570923
0.214783 0.874664 0.570923
0.360901 0.874664 0.570923
0.551483 0.874664 0.570923
0.789246 0.874664 0.570923
0.000000 0.000000 0.689758
0.008545 0.000000 0.689758
0.042847 0.000000 0.689758
0.110016 0.000000 0.689758
0.214783 0.000000 0.689758
0.360901 0.000000 0.689758
0.551483 0.000000 0.689758
0.789246 0.000000 0.689758
0.000000 0.067596 0.689758
0.008545 0.067596 0.689758
0.042847 0.067596 0.689758
0.110016 0.067596 0.689758
0.214783 0.067596 0.689758
0.360901 0.067596 0.689758
0.551483 0.067596 0.689758
0.789246 0.067596 0.689758
0.000000 0.168243 0.689758
0.008545 0.168243 0.689758
0.042847 0.168243 0.689758
0.110016 0.168243 0.689758
0.214783 0.168243 0.689758
0.360901 0.168243 0.689758
0.551483 0.168243 0.689758
0.789246 0.168243 0.689758
0.000000 0.286835 0.689758
0.008545 0.286835 0.689758
0.042847 0.286835 0.689758
0.110016 0.286835 0.689758
0.214783 0.286835 0.689758
0.360901 0.286835 0.689758
0.551483 0.286835 0.689758
0.789246 0.286835 0.689758
0.000000 0.418854 0.689758
0.008545 0.418854 0.689758
0.042847 0.418854 0.689758
0.110016 0.418854 0.689758
0.214783 0.418854 0.689758
0.360901 0.418854 0.689758
0.551483 0.418854 0.689758
0.789246 0.418854 0.689758
0.000000 0.561798 0.689758
0.008545 0.561798 0.689758
0.042847 0.561798 0.689758
0.110016 0.561798 0.689758
0.214783 0.561798 0.689758
0.360901 0.561798 0.689758
0.551483 0.561798 0.689758
0.789246 0.561798 0.689758
0.000000 0.714081 0.689758
0.008545 0.714081 0.689758
0.042847 0.714081 0.689758
0.110016 0.714081 0.689758
0.214783 0.714081 0.689758
0.360901 0.714081 0.689758
0.551483 0.714081 0.689758
0.789246 0.714081 0.689758
0.000000 0.874664 0.689758
0.008545 0.874664 0.689758
0.042847 0.874664 0.689758
0.110016 0.874664 0.689758
0.214783 0.874664 0.689758
0.360901 0.874664 0.689758
0.551483 0.874664 0.689758
0.789246 0.874664 0.689758
0.000000 0.000000 0.805023
0.008545 0.000000 0.805023
0.042847 0.000000 0.805023
0.110016 0.000000 0.805023
0.214783 0.000000 0.805023
0.360901 0.000000 0.805023
0.551483 0.000000 0.805023
0.789246 0.000000 0.805023
0.000000 0.067596 0.805023
0.008545 0.067596 0.805023
0.042847 0.067596 0.805023
0.110016 0.067596 0.805023
0.214783 0.067596 0.805023
0.360901 0.067596 0.805023
0.551483 0.067596 0.805023
0.789246 0.067596 0.805023
0.000000 0.168243 0.805023
0.008545 0.168243 0.805023
0.042847 0.168243 0.805023
0.110016 0.168243 0.805023
0.214783 0.168243 0.805023
0.360901 0.168243 0.805023
0.551483 0.168243 0.805023
0.789246 0.168243 0.805023
0.000000 0.286835 0.805023
0.008545 0.286835 0.805023
0.042847 0.286835 0.805023
0.110016 0.286835 0.805023
0.214783 0.286835 0.805023
0.360901 0.286835 0.805023
0.551483 0.286835 0.805023
0.789246 0.286835 0.805023
0.000000 0.418854 0.805023
0.008545 0.418854 0.805023
0.042847 0.418854 0.805023
0.110016 0.418854 0.805023
0.214783 0.418854 0.805023
0.360901 0.418854 0.805023
0.551483 0.418854 0.805023
0.789246 0.418854 0.805023
0.000000 0.561798 0.805023
0.008545 0.561798 0.805023
0.042847 0.561798 0.805023
0.110016 0.561798 0.805023
0.214783 0.561798 0.805023
0.360901 0.561798 0.805023
0.551483 0.561798 0.805023
0.789246 0.561798 0.805023
0.000000 0.714081 0.805023
0.008545 0.714081 0.805023
0.042847 0.714081 0.805023
0.110016 0.714081 0.805023
0.214783 0.714081 0.805023
0.360901 0.714081 0.805023
0.551483 0.714081 0.805023
0.789246 0.714081 0.805023
0.000000 0.874664 0.805023
0.008545 0.874664 0.805023
0.042847 0.874664 0.805023
0.110016 0.874664 0.805023
0.214783 0.874664 0.805023
0.360901 0.874664 0.805023
0.551483 0.874664 0.805023
0.789246 0.874664 0.805023
0.000000 0.000000 0.917358
0.008545 0.000000 0.917358
0.042847 0.000000 0.917358
0.110016 0.000000 0.917358
0.214783 0.000000 0.917358
0.360901 0.000000 0.917358
0.551483 0.000000 0.917358
0.789246 0.000000 0.917358
0.000000 0.067596 0.917358
0.008545 0.067596 0.917358
0.042847 0.067596 0.917358
0.110016 0.067596 0.917358
0.214783 0.067596 0.917358
0.360901 0.067596 0.917358
0.551483 0.067596 0.917358
0.789246 0.067596 0.917358
0.000000 0.168243 0.917358
0.008545 0.168243 0.917358
0.042847 0.168243 0.917358
0.110016 0.168243 0.917358
0.214783 0.168243 0.917358
0.360901 0.168243 0.917358
0.551483 0.168243 0.917358
0.789246 0.168243 0.917358
0.000000 0.286835 0.917358
0.008545 0.286835 0.917358
0.042847 0.286835 0.917358
0.110016 0.286835 0.917358
0.214783 0.286835 0.917358
0.360901 0.286835 0.917358
0.551483 0.286835 0.917358
0.789246 0.286835 0.917358
0.000000 0.418854 0.917358
0.008545 0.418854 0.917358
0.042847 0.418854 0.917358
0.110016 0.418854 0.917358
0.214783 0.418854 0.917358
0.360901 0.418854 0.917358
0.551483 0.418854 0.917358
0.789246 0.418854 0.917358
0.000000 0.561798 0.917358
0.008545 0.561798 0.917358
0.042847 0.561798 0.917358
0.110016 0.561798 0.917358
0.214783 0.561798 0.917358
0.360901 0.561798 0.917358
0.551483 0.561798 0.917358
0.789246 0.561798 0.917358
0.000000 0.714081 0.917358
0.008545 0.714081 0.917358
0.042847 0.714081 0.917358
0.110016 0.714081 0.917358
0.214783 0.714081 0.917358
0.360901 0.714081 0.917358
0.551483 0.714081 0.917358
0.789246 0.714081 0.917358
0.000000 0.874664 0.917358
0.008545 0.874664 0.917358
0.042847 0.874664 0.917358
0.110016 0.874664 0.917358
0.214783 0.874664 0.917358
0.360901 0.874664 0.917358
0.551483 0.874664 0.917358
0.789246 0.874664 0.917358
