Executable/luts/mycool.CUBE
#Created by: Adobe Photoshop Export Color Lookup Plugin
TITLE "mycool"
#LUT size
LUT_3D_SIZE 32
#data domain
DOMAIN_MIN 0.0 0.0 0.0
DOMAIN_MAX 1.0 1.0 1.0
#LUT data points
0.000000 0.000000 0.000000
0.000336 0.000000 0.000000
0.001709 0.000000 0.000000
0.004364 0.000000 0.000000
0.008545 0.000000 0.000000
0.014374 0.000000 0.000000
0.021973 0.000000 0.000000
0.031403 0.000000 0.000000
0.042847 0.000000 0.000000
0.056335 0.000000 0.000000
0.071991 0.000000 0.000000
0.089874 0.000000 0.000000
0.110016 0.000000 0.000000
0.132507 0.000000 0.000000
0.157440 0.000000 0.000000
0.184845 0.000000 0.000000
0.214783 0.000000 0.000000
0.247314 0.000000 0.000000
0.282471 0.000000 0.000000
0.320313 0.000000 0.000000
0.360901 0.000000 0.000000
0.404266 0.000000 0.000000
0.450470 0.000000 0.000000
0.499512 0.000000 0.000000
0.551483 0.000000 0.000000
0.606384 0.000000 0.000000
0.664307 0.000000 0.000000
0.725250 0.000000 0.000000
0.789246 0.000000 0.000000
0.856354 0.000000 0.000000
0.926575 0.000000 0.000000
1.000000 0.000000 0.000000
0.000000 0.010895 0.000000
0.000336 0.010895 0.000000
0.001709 0.010895 0.000000
0.004364 0.010895 0.000000
0.008545 0.010895 0.000000
0.014374 0.010895 0.000000
0.021973 0.010895 0.000000
0.031403 0.010895 0.000000
0.042847 0.010895 0.000000
0.056335 0.010895 0.000000
0.071991 0.010895 0.000000
0.089874 0.010895 0.000000
0.110016 0.010895 0.000000
0.132507 0.010895 0.000000
0.157440 0.010895 0.000000
0.184845 0.010895 0.000000
0.214783 0.010895 0.000000
0.247314 0.010895 0.000000
0.282471 0.010895 0.000000
0.320313 0.010895 0.000000
0.360901 0.010895 0.000000
0.404266 0.010895 0.000000
0.450470 0.010895 0.000000
0.499512 0.010895 0.000000
0.551483 0.010895 0.000000
0.606384 0.010895 0.000000
0.664307 0.010895 0.000000
0.725250 0.010895 0.000000
0.789246 0.010895 0.000000
0.856354 0.010895 0.000000
0.926575 0.010895 0.000000
1.000000 0.010895 0.000000
0.000000 0.027161 0.000000
0.000336 0.027161 0.000000
0.001709 0.027161 0.000000
0.004364 0.027161 0.000000
0.008545 0.027161 0.000000
0.014374 0.027161 0.000000
0.021973 0.027161 0.000000
0.031403 0.027161 0.000000
0.042847 0.027161 0.000000
0.056335 0.027161 0.000000
0.071991 0.027161 0.000000
0.089874 0.027161 0.000000
0.110016 0.027161 0.000000
0.132507 0.027161 0.000000
0.157440 0.027161 0.000000
0.184845 0.027161 0.000000
0.214783 0.027161 0.000000
0.247314 0.027161 0.000000
0.282471 0.027161 0.000000
0.320313 0.027161 0.000000
0.360901 0.027161 0.000000
0.404266 0.027161 0.000000
0.450470 0.027161 0.000000
0.499512 0.027161 0.000000
0.551483 0.027161 0.000000
0.606384 0.027161 0.000000
0.664307 0.027161 0.000000
0.725250 0.027161 0.000000
0.789246 0.027161 0.000000
0.856354 0.027161 0.000000
0.926575 0.027161 0.000000
1.000000 0.027161 0.000000
0.000000 0.046295 0.000000
0.000336 0.046295 0.000000
0.001709 0.046295 0.000000
0.004364 0.046295 0.000000
0.008545 0.046295 0.000000
0.014374 0.046295 0.000000
0.021973 0.046295 0.000000
0.031403 0.046295 0.000000
0.042847 0.046295 0.000000
0.056335 0.046295 0.000000
0.071991 0.046295 0.000000
0.089874 0.046295 0.000000
0.110016 0.046295 0.000000
0.132507 0.046295 0.000000
0.157440 0.046295 0.000000
0.184845 0.046295 0.000000
0.214783 0.046295 0.000000
0.247314 0.046295 0.000000
0.282471 0.046295 0.000000
0.320313 0.046295 0.000000
0.360901 0.046295 0.000000
0.404266 0.046295 0.000000
0.450470 0.046295 0.000000
0.499512 0.046295 0.000000
0.551483 0.046295 0.000000
0.606384 0.046295 0.000000
0.664307 0.046295 0.000000
0.725250 0.046295 0.000000
0.789246 0.046295 0.000000
0.856354 0.046295 0.000000
0.926575 0.046295 0.000000
1.000000 0.046295 0.000000
0.000000 0.067596 0.000000
0.000336 0.067596 0.000000
0.001709 0.067596 0.000000
0.004364 0.067596 0.000000
0.008545 0.067596 0.000000
0.014374 0.067596 0.000000
0.021973 0.067596 0.000000
0.031403 0.067596 0.000000
0.042847 0.067596 0.000000
0.056335 0.067596 0.000000
0.071991 0.067596 0.000000
0.089874 0.067596 0.000000
0.110016 0.067596 0.000000
0.132507 0.067596 0.000000
0.157440 0.067596 0.000000
0.184845 0.067596 0.000000
0.214783 0.067596 0.000000
0.247314 0.067596 0.000000
0.282471 0.067596 0.000000
0.320313 0.067596 0.000000
0.360901 0.067596 0.000000
0.404266 0.067596 0.000000
0.450470 0.067596 0.000000
0.499512 0.067596 0.000000
0.551483 0.067596 0.000000
0.606384 0.067596 0.000000
0.664307 0.067596 0.000000
0.725250 0.067596 0.000000
0.789246 0.067596 0.000000
0.856354 0.067596 0.000000
0.926575 0.067596 0.000000
1.000000 0.067596 0.000000
0.000000 0.090668 0.000000
0.000336 0.090668 0.000000
0.001709 0.090668 0.000000
0.004364 0.090668 0.000000
0.008545 0.090668 0.000000
0.014374 0.090668 0.000000
0.021973 0.090668 0.000000
0.031403 0.090668 0.000000
0.042847 0.090668 0.000000
0.056335 0.090668 0.000000
0.071991 0.090668 0.000000
0.089874 0.090668 0.000000
0.110016 0.090668 0.000000
0.132507 0.090668 0.000000
0.157440 0.090668 0.000000
0.184845 0.090668 0.000000
0.214783 0.090668 0.000000
0.247314 0.090668 0.000000
0.282471 0.090668 0.000000
0.320313 0.090668 0.000000
0.360901 0.090668 0.000000
0.404266 0.090668 0.000000
0.450470 0.090668 0.000000
0.499512 0.090668 0.000000
0.551483 0.090668 0.000000
0.606384 0.090668 0.000000
0.664307 0.090668 0.000000
0.725250 0.090668 0.000000
0.789246 0.090668 0.000000
0.856354 0.090668 0.000000
0.926575 0.090668 0.000000
1.000000 0.090668 0.000000
0.000000 0.115234 0.000000
0.000336 0.115234 0.000000
0.001709 0.115234 0.000000
0.004364 0.115234 0.000000
0.008545 0.115234 0.000000
0.014374 0.115234 0.000000
0.021973 0.115234 0.000000
0.031403 0.115234 0.000000
0.042847 0.115234 0.000000
0.056335 0.115234 0.000000
0.071991 0.115234 0.000000
0.089874 0.115234 0.000000
0.110016 0.115234 0.000000
0.132507 0.115234 0.000000
0.157440 0.115234 0.000000
0.184845 0.115234 0.000000
0.214783 0.115234 0.000000
0.247314 0.115234 0.000000
0.282471 0.115234 0.000000
0.320313 0.115234 0.000000
0.360901 0.115234 0.000000
0.404266 0.115234 0.000000
0.450470 0.115234 0.000000
0.499512 0.115234 0.000000
0.551483 0.115234 0.000000
0.606384 0.115234 0.000000
0.664307 0.115234 0.000000
0.725250 0.115234 0.000000
0.789246 0.115234 0.000000
0.856354 0.115234 0.000000
0.926575 0.115234 0.000000
1.000000 0.115234 0.000000
0.000000 0.141144 0.000000
0.000336 0.141144 0.000000
0.001709 0.141144 0.000000
0.004364 0.141144 0.000000
0.008545 0.141144 0.000000
0.014374 0.141144 0.000000
0.021973 0.141144 0.000000
0.031403 0.141144 0.000000
0.042847 0.141144 0.000000
0.056335 0.141144 0.000000
0.071991 0.141144 0.000000
0.089874 0.141144 0.000000
0.110016 0.141144 0.000000
0.132507 0.141144 0.000000
0.157440 0.141144 0.000000
0.184845 0.141144 0.000000
0.214783 0.141144 0.000000
0.247314 0.141144 0.000000
0.282471 0.141144 0.000000
0.320313 0.141144 0.000000
0.360901 0.141144 0.000000
0.404266 0.141144 0.000000
0.450470 0.141144 0.000000
0.499512 0.141144 0.000000
0.551483 0.141144 0.000000
0.606384 0.141144 0.000000
0.664307 0.141144 0.000000
0.725250 0.141144 0.000000
0.789246 0.141144 0.000000
0.856354 0.141144 0.000000
0.926575 0.141144 0.000000
1.000000 0.141144 0.000000
0.000000 0.168243 0.000000
0.000336 0.168243 0.000000
0.001709 0.168243 0.000000
0.004364 0.168243 0.000000
0.008545 0.168243 0.000000
0.014374 0.168243 0.000000
0.021973 0.168243 0.000000
0.031403 0.168243 0.000000
0.042847 0.168243 0.000000
0.056335 0.168243 0.000000
0.071991 0.168243 0.000000
0.089874 0.168243 0.000000
0.110016 0.168243 0.000000
0.132507 0.168243 0.000000
0.157440 0.168243 0.000000
0.184845 0.168243 0.000000
0.214783 0.168243 0.000000
0.247314 0.168243 0.000000
0.282471 0.168243 0.000000
0.320313 0.168243 0.000000
0.360901 0.168243 0.000000
0.404266 0.168243 0.000000
0.450470 0.168243 0.000000
0.499512 0.168243 0.000000
0.551483 0.168243 0.000000
0.606384 0.168243 0.000000
0.664307 0.168243 0.000000
0.725250 0.168243 0.000000
0.789246 0.168243 0.000000
0.856354 0.168243 0.000000
0.926575 0.168243 0.000000
1.000000 0.168243 0.000000
0.000000 0.196442 0.000000
0.000336 0.196442 0.000000
0.001709 0.196442 0.000000
0.004364 0.196442 0.000000
0.008545 0.196442 0.000000
0.014374 0.196442 0.000000
0.021973 0.196442 0.000000
0.031403 0.196442 0.000000
0.042847 0.196442 0.000000
0.056335 0.196442 0.000000
0.071991 0.196442 0.000000
0.089874 0.196442 0.000000
0.110016 0.196442 0.000000
0.132507 0.196442 0.000000
0.157440 0.196442 0.000000
0.184845 0.196442 0.000000
0.214783 0.196442 0.000000
0.247314 0.196442 0.000000
0.282471 0.196442 0.000000
0.320313 0.196442 0.000000
0.360901 0.196442 0.000000
0.404266 0.196442 0.000000
0.450470 0.196442 0.000000
0.499512 0.196442 0.000000
0.551483 0.196442 0.000000
0.606384 0.196442 0.000000
0.664307 0.196442 0.000000
0.725250 0.196442 0.000000
0.789246 0.196442 0.000000
0.856354 0.196442 0.000000
0.926575 0.196442 0.000000
1.000000 0.196442 0.000000
0.000000 0.225677 0.000000
0.000336 0.225677 0.000000
0.001709 0.225677 0.000000
0.004364 0.225677 0.000000
0.008545 0.225677 0.000000
0.014374 0.225677 0.000000
0.021973 0.225677 0.000000
0.031403 0.225677 0.000000
0.042847 0.225677 0.000000
0.056335 0.225677 0.000000
0.071991 0.225677 0.000000
0.089874 0.225677 0.000000
0.110016 0.225677 0.000000
0.132507 0.225677 0.000000
0.157440 0.225677 0.000000
0.184845 0.225677 0.000000
0.214783 0.225677 0.000000
0.247314 0.225677 0.000000
0.282471 0.225677 0.000000
0.320313 0.225677 0.000000
0.360901 0.225677 0.000000
0.404266 0.225677 0.000000
0.450470 0.225677 0.000000
0.499512 0.225677 0.000000
0.551483 0.225677 0.000000
0.606384 0.225677 0.000000
0.664307 0.225677 0.000000
0.725250 0.225677 0.000000
0.789246 0.225677 0.000000
0.856354 0.225677 0.000000
0.926575 0.225677 0.000000
1.000000 0.225677 0.000000
0.000000 0.255829 0.000000
0.000336 0.255829 0.000000
0.001709 0.255829 0.000000
0.004364 0.255829 0.000000
0.008545 0.255829 0.000000
0.014374 0.255829 0.000000
0.021973 0.255829 0.000000
0.031403 0.255829 0.000000
0.042847 0.255829 0.000000
0.056335 0.255829 0.000000
0.071991 0.255829 0.000000
0.089874 0.255829 0.000000
0.110016 0.255829 0.000000
0.132507 0.255829 0.000000
0.157440 0.255829 0.000000
0.184845 0.255829 0.000000
0.214783 0.255829 0.000000
0.247314 0.255829 0.000000
0.282471 0.255829 0.000000
0.320313 0.255829 0.000000
0.360901 0.255829 0.000000
0.404266 0.255829 0.000000
0.450470 0.255829 0.000000
0.499512 0.255829 0.000000
0.551483 0.255829 0.000000
0.606384 0.255829 0.000000
0.664307 0.255829 0.000000
0.725250 0.255829 0.000000
0.789246 0.255829 0.000000
0.856354 0.255829 0.000000
0.926575 0.255829 0.000000
1.000000 0.255829 0.000000
0.000000 0.286835 0.000000
0.000336 0.286835 0.000000
0.001709 0.286835 0.000000
0.004364 0.286835 0.000000
0.008545 0.286835 0.000000
0.014374 0.286835 0.000000
0.021973 0.286835 0.000000
0.031403 0.286835 0.000000
0.042847 0.286835 0.000000
0.056335 0.286835 0.000000
0.071991 0.286835 0.000000
0.089874 0.286835 0.000000
0.110016 0.286835 0.000000
0.132507 0.286835 0.000000
0.157440 0.286835 0.000000
0.184845 0.286835 0.000000
0.214783 0.286835 0.000000
0.247314 0.286835 0.000000
0.282471 0.286835 0.000000
0.320313 0.286835 0.000000
0.360901 0.286835 0.000000
0.404266 0.286835 0.000000
0.450470 0.286835 0.000000
0.499512 0.286835 0.000000
0.551483 0.286835 0.000000
0.606384 0.286835 0.000000
0.664307 0.286835 0.000000
0.725250 0.286835 0.000000
0.789246 0.286835 0.000000
0.856354 0.286835 0.000000
0.926575 0.286835 0.000000
1.000000 0.286835 0.000000
0.000000 0.318695 0.000000
0.000336 0.318695 0.000000
0.001709 0.318695 0.000000
0.004364 0.318695 0.000000
0.008545 0.318695 0.000000
0.014374 0.318695 0.000000
0.021973 0.318695 0.000000
0.031403 0.318695 0.000000
0.042847 0.318695 0.000000
0.056335 0.318695 0.000000
0.071991 0.318695 0.000000
0.089874 0.318695 0.000000
0.110016 0.318695 0.000000
0.132507 0.318695 0.000000
0.157440 0.318695 0.000000
0.184845 0.318695 0.000000
0.214783 0.318695 0.000000
0.247314 0.318695 0.000000
0.282471 0.318695 0.000000
0.320313 0.318695 0.000000
0.360901 0.318695 0.000000
0.404266 0.318695 0.000000
0.450470 0.318695 0.000000
0.499512 0.318695 0.000000
0.551483 0.318695 0.000000
0.606384 0.318695 0.000000
0.664307 0.318695 0.000000
0.725250 0.318695 0.000000
0.789246 0.318695 0.000000
0.856354 0.318695 0.000000
0.926575 0.318695 0.000000
1.000000 0.318695 0.000000
0.000000 0.351349 0.000000
0.000336 0.351349 0.000000
0.001709 0.351349 0.000000
0.004364 0.351349 0.000000
0.008545 0.351349 0.000000
0.014374 0.351349 0.000000
0.021973 0.351349 0.000000
0.031403 0.351349 0.000000
0.042847 0.351349 0.000000
0.056335 0.351349 0.000000
0.071991 0.351349 0.000000
0.089874 0.351349 0.000000
0.110016 0.351349 0.000000
0.132507 0.351349 0.000000
0.157440 0.351349 0.000000
0.184845 0.351349 0.000000
0.214783 0.351349 0.000000
0.247314 0.351349 0.000000
0.282471 0.351349 0.000000
0.320313 0.351349 0.000000
0.360901 0.351349 0.000000
0.404266 0.351349 0.000000
0.450470 0.351349 0.000000
0.499512 0.351349 0.000000
0.551483 0.351349 0.000000
0.606384 0.351349 0.000000
0.664307 0.351349 0.000000
0.725250 0.351349 0.000000
0.789246 0.351349 0.000000
0.856354 0.351349 0.000000
0.926575 0.351349 0.000000
1.000000 0.351349 0.000000
0.000000 0.384735 0.000000
0.000336 0.384735 0.000000
0.001709 0.384735 0.000000
0.004364 0.384735 0.000000
0.008545 0.384735 0.000000
0.014374 0.384735 0.000000
0.021973 0.384735 0.000000
0.031403 0.384735 0.000000
0.042847 0.384735 0.000000
0.056335 0.384735 0.000000
0.071991 0.384735 0.000000
0.089874 0.384735 0.000000
0.110016 0.384735 0.000000
0.132507 0.384735 0.000000
0.157440 0.384735 0.000000
0.184845 0.384735 0.000000
0.214783 0.384735 0.000000
0.247314 0.384735 0.000000
0.282471 0.384735 0.000000
0.320313 0.384735 0.000000
0.360901 0.384735 0.000000
0.404266 0.384735 0.000000
0.450470 0.384735 0.000000
0.499512 0.384735 0.000000
0.551483 0.384735 0.000000
0.606384 0.384735 0.000000
0.664307 0.384735 0.000000
0.725250 0.384735 0.000000
0.789246 0.384735 0.000000
0.856354 0.384735 0.000000
0.926575 0.384735 0.000000
1.000000 0.384735 0.000000
0.000000 0.418854 0.000000
0.000336 0.418854 0.000000
0.001709 0.418854 0.000000
0.004364 0.418854 0.000000
0.008545 0.418854 0.000000
0.014374 0.418854 0.000000
0.021973 0.418854 0.000000
0.031403 0.418854 0.000000
0.042847 0.418854 0.000000
0.056335 0.418854 0.000000
0.071991 0.418854 0.000000
0.089874 0.418854 0.000000
0.110016 0.418854 0.000000
0.132507 0.418854 0.000000
0.157440 0.418854 0.000000
0.184845 0.418854 0.000000
0.214783 0.418854 0.000000
0.247314 0.418854 0.000000
0.282471 0.418854 0.000000
0.320313 0.418854 0.000000
0.360901 0.418854 0.000000
0.404266 0.418854 0.000000
0.450470 0.418854 0.000000
0.499512 0.418854 0.000000
0.551483 0.418854 0.000000
0.606384 0.418854 0.000000
0.664307 0.418854 0.000000
0.725250 0.418854 0.000000
0.789246 0.418854 0.000000
0.856354 0.418854 0.000000
0.926575 0.418854 0.000000
1.000000 0.418854 0.000000
0.000000 0.453644 0.000000
0.000336 0.453644 0.000000
0.001709 0.453644 0.000000
0.004364 0.453644 0.000000
0.008545 0.453644 0.000000
0.014374 0.453644 0.000000
0.021973 0.453644 0.000000
0.031403 0.453644 0.000000
0.042847 0.453644 0.000000
0.056335 0.453644 0.000000
0.071991 0.453644 0.000000
0.089874 0.453644 0.000000
0.110016 0.453644 0.000000
0.132507 0.453644 0.000000
0.157440 0.453644 0.000000
0.184845 0.453644 0.000000
0.214783 0.453644 0.000000
0.247314 0.453644 0.000000
0.282471 0.453644 0.000000
0.320313 0.453644 0.000000
0.360901 0.453644 0.000000
0.404266 0.453644 0.000000
0.450470 0.453644 0.000000
0.499512 0.453644 0.000000
0.551483 0.453644 0.000000
0.606384 0.453644 0.000000
0.664307 0.453644 0.000000
0.725250 0.453644 0.000000
0.789246 0.453644 0.000000
0.856354 0.453644 0.000000
0.926575 0.453644 0.000000
1.000000 0.453644 0.000000
0.000000 0.489044 0.000000
0.000336 0.489044 0.000000
0.001709 0.489044 0.000000
0.004364 0.489044 0.000000
0.008545 0.489044 0.000000
0.014374 0.489044 0.000000
0.021973 0.489044 0.000000
0.031403 0.489044 0.000000
0.042847 0.489044 0.000000
0.056335 0.489044 0.000000
0.071991 0.489044 0.000000
0.089874 0.489044 0.000000
0.110016 0.489044 0.000000
0.132507 0.489044 0.000000
0.157440 0.489044 0.000000
0.184845 0.489044 0.000000
0.214783 0.489044 0.000000
0.247314 0.489044 0.000000
0.282471 0.489044 0.000000
0.320313 0.489044 0.000000
0.360901 0.489044 0.000000
0.404266 0.489044 0.000000
0.450470 0.489044 0.000000
0.499512 0.489044 0.000000
0.551483 0.489044 0.000000
0.606384 0.489044 0.000000
0.664307 0.489044 0.000000
0.725250 0.489044 0.000000
0.789246 0.489044 0.000000
0.856354 0.489044 0.000000
0.926575 0.489044 0.000000
1.000000 0.489044 0.000000
0.000000 0.525146 0.000000
0.000336 0.525146 0.000000
0.001709 0.525146 0.000000
0.004364 0.525146 0.000000
0.008545 0.525146 0.000000
0.014374 0.525146 0.000000
0.021973 0.525146 0.000000
0.031403 0.525146 0.000000
0.042847 0.525146 0.000000
0.056335 0.525146 0.000000
0.071991 0.525146 0.000000
0.089874 0.525146 0.000000
0.110016 0.525146 0.000000
0.132507 0.525146 0.000000
0.157440 0.525146 0.000000
0.184845 0.525146 0.000000
0.214783 0.525146 0.000000
0.247314 0.525146 0.000000
0.282471 0.525146 0.000000
0.320313 0.525146 0.000000
0.360901 0.525146 0.000000
0.404266 0.525146 0.000000
0.450470 0.525146 0.000000
0.499512 0.525146 0.000000
0.551483 0.525146 0.000000
0.606384 0.525146 0.000000
0.664307 0.525146 0.000000
0.725250 0.525146 0.000000
0.789246 0.525146 0.000000
0.856354 0.525146 0.000000
0.926575 0.525146 0.000000
1.000000 0.525146 0.000000
0.000000 0.561798 0.000000
0.000336 0.561798 0.000000
0.001709 0.561798 0.000000
0.004364 0.561798 0.000000
0.008545 0.561798 0.000000
0.014374 0.561798 0.000000
0.021973 0.561798 0.000000
0.031403 0.561798 0.000000
0.042847 0.561798 0.000000
0.056335 0.561798 0.000000
0.071991 0.561798 0.000000
0.089874 0.561798 0.000000
0.110016 0.561798 0.000000
0.132507 0.561798 0.000000
0.157440 0.561798 0.000000
0.184845 0.561798 0.000000
0.214783 0.561798 0.000000
0.247314 0.561798 0.000000
0.282471 0.561798 0.000000
0.320313 0.561798 0.000000
0.360901 0.561798 0.000000
0.404266 0.561798 0.000000
0.450470 0.561798 0.000000
0.499512 0.561798 0.000000
0.551483 0.561798 0.000000
0.606384 0.561798 0.000000
0.664307 0.561798 0.000000
0.725250 0.561798 0.000000
0.789246 0.561798 0.000000
0.856354 0.561798 0.000000
0.926575 0.561798 0.000000
1.000000 0.561798 0.000000
0.000000 0.599060 0.000000
0.000336 0.599060 0.000000
0.001709 0.599060 0.000000
0.004364 0.599060 0.000000
0.008545 0.599060 0.000000
0.014374 0.599060 0.000000
0.021973 0.599060 0.000000
0.031403 0.599060 0.000000
0.042847 0.599060 0.000000
0.056335 0.599060 0.000000
0.071991 0.599060 0.000000
0.089874 0.599060 0.000000
0.110016 0.599060 0.000000
0.132507 0.599060 0.000000
0.157440 0.599060 0.000000
0.184845 0.599060 0.000000
0.214783 0.599060 0.000000
0.247314 0.599060 0.000000
0.282471 0.599060 0.000000
0.320313 0.599060 0.000000
0.360901 0.599060 0.000000
0.404266 0.599060 0.000000
0.450470 0.599060 0.000000
0.499512 0.599060 0.000000
0.551483 0.599060 0.000000
0.606384 0.599060 0.000000
0.664307 0.599060 0.000000
0.725250 0.599060 0.000000
0.789246 0.599060 0.000000
0.856354 0.599060 0.000000
0.926575 0.599060 0.000000
1.000000 0.599060 0.000000
0.000000 0.636841 0.000000
0.000336 0.636841 0.000000
0.001709 0.636841 0.000000
0.004364 0.636841 0.000000
0.008545 0.636841 0.000000
0.014374 0.636841 0.000000
0.021973 0.636841 0.000000
0.031403 0.636841 0.000000
0.042847 0.636841 0.000000
0.056335 0.636841 0.000000
0.071991 0.636841 0.000000
0.089874 0.636841 0.000000
0.110016 0.636841 0.000000
0.132507 0.636841 0.000000
0.157440 0.636841 0.000000
0.184845 0.636841 0.000000
0.214783 0.636841 0.000000
0.247314 0.636841 0.000000
0.282471 0.636841 0.000000
0.320313 0.636841 0.000000
0.360901 0.636841 0.000000
0.404266 0.636841 0.000000
0.450470 0.636841 0.000000
0.499512 0.636841 0.000000
0.551483 0.636841 0.000000
0.606384 0.636841 0.000000
0.664307 0.636841 0.000000
0.725250 0.636841 0.000000
0.789246 0.636841 0.000000
0.856354 0.636841 0.000000
0.926575 0.636841 0.000000
1.000000 0.636841 0.000000
0.000000 0.675201 0.000000
0.000336 0.675201 0.000000
0.001709 0.675201 0.000000
0.004364 0.675201 0.000000
0.008545 0.675201 0.000000
0.014374 0.675201 0.000000
0.021973 0.675201 0.000000
0.031403 0.675201 0.000000
0.042847 0.675201 0.000000
0.056335 0.675201 0.000000
0.071991 0.675201 0.000000
0.089874 0.675201 0.000000
0.110016 0.675201 0.000000
0.132507 0.675201 0.000000
0.157440 0.675201 0.000000
0.184845 0.675201 0.000000
0.214783 0.675201 0.000000
0.247314 0.675201 0.000000
0.282471 0.675201 0.000000
0.320313 0.675201 0.000000
0.360901 0.675201 0.000000
0.404266 0.675201 0.000000
0.450470 0.675201 0.000000
0.499512 0.675201 0.000000
0.551483 0.675201 0.000000
0.606384 0.675201 0.000000
0.664307 0.675201 0.000000
0.725250 0.675201 0.000000
0.789246 0.675201 0.000000
0.856354 0.675201 0.000000
0.926575 0.675201 0.000000
1.000000 0.675201 0.000000
0.000000 0.714081 0.000000
0.000336 0.714081 0.000000
0.001709 0.714081 0.000000
0.004364 0.714081 0.000000
0.008545 0.714081 0.000000
0.014374 0.714081 0.000000
0.021973 0.714081 0.000000
0.031403 0.714081 0.000000
0.042847 0.714081 0.000000
0.056335 0.714081 0.000000
0.071991 0.714081 0.000000
0.089874 0.714081 0.000000
0.110016 0.714081 0.000000
0.132507 0.714081 0.000000
0.157440 0.714081 0.000000
0.184845 0.714081 0.000000
0.214783 0.714081 0.000000
0.247314 0.714081 0.000000
0.282471 0.714081 0.000000
0.320313 0.714081 0.000000
0.360901 0.714081 0.000000
0.404266 0.714081 0.000000
0.450470 0.714081 0.000000
0.499512 0.714081 0.000000
0.551483 0.714081 0.000000
0.606384 0.714081 0.000000
0.664307 0.714081 0.000000
0.725250 0.714081 0.000000
0.789246 0.714081 0.000000
0.856354 0.714081 0.000000
0.926575 0.714081 0.000000
1.000000 0.714081 0.000000
0.000000 0.753510 0.000000
0.000336 0.753510 0.000000
0.001709 0.753510 0.000000
0.004364 0.753510 0.000000
0.008545 0.753510 0.000000
0.014374 0.753510 0.000000
0.021973 0.753510 0.000000
0.031403 0.753510 0.000000
0.042847 0.753510 0.000000
0.056335 0.753510 0.000000
0.071991 0.753510 0.000000
0.089874 0.753510 0.000000
0.110016 0.753510 0.000000
0.132507 0.753510 0.000000
0.157440 0.753510 0.000000
0.184845 0.753510 0.000000
0.214783 0.753510 0.000000
0.247314 0.753510 0.000000
0.282471 0.753510 0.000000
0.320313 0.753510 0.000000
0.360901 0.753510 0.000000
0.404266 0.753510 0.000000
0.450470 0.753510 0.000000
0.499512 0.753510 0.000000
0.551483 0.753510 0.000000
0.606384 0.753510 0.000000
0.664307 0.753510 0.000000
0.725250 0.753510 0.000000
0.789246 0.753510 0.000000
0.856354 0.753510 0.000000
0.926575 0.753510 0.000000
1.000000 0.753510 0.000000
0.000000 0.793396 0.000000
0.000336 0.793396 0.000000
0.001709 0.793396 0.000000
0.004364 0.793396 0.000000
0.008545 0.793396 0.000000
0.014374 0.793396 0.000000
0.021973 0.793396 0.000000
0.031403 0.793396 0.000000
0.042847 0.793396 0.000000
0.056335 0.793396 0.000000
0.071991 0.793396 0.000000
0.089874 0.793396 0.000000
0.110016 0.793396 0.000000
0.132507 0.793396 0.000000
0.157440 0.793396 0.000000
0.184845 0.793396 0.000000
0.214783 0.793396 0.000000
0.247314 0.793396 0.000000
0.282471 0.793396 0.000000
0.320313 0.793396 0.000000
0.360901 0.793396 0.000000
0.404266 0.793396 0.000000
0.450470 0.793396 0.000000
0.499512 0.793396 0.000000
0.551483 0.793396 0.000000
0.606384 0.793396 0.000000
0.664307 0.793396 0.000000
0.725250 0.793396 0.000000
0.789246 0.793396 0.000000
0.856354 0.793396 0.000000
0.926575 0.793396 0.000000
1.000000 0.793396 0.000000
0.000000 0.833801 0.000000
0.000336 0.833801 0.000000
0.001709 0.833801 0.000000
0.004364 0.833801 0.000000
0.008545 0.833801 0.000000
0.014374 0.833801 0.000000
0.021973 0.833801 0.000000
0.031403 0.833801 0.000000
0.042847 0.833801 0.000000
0.056335 0.833801 0.000000
0.071991 0.833801 0.000000
0.089874 0.833801 0.000000
0.110016 0.833801 0.000000
0.132507 0.833801 0.000000
0.157440 0.833801 0.000000
0.184845 0.833801 0.000000
0.214783 0.833801 0.000000
0.247314 0.833801 0.000000
