Executable/luts/mycool.CUBE
#Created by: Adobe Photoshop Export Color Lookup Plugin
TITLE "mycool"
#LUT size
LUT_3D_SIZE 5
#data domain
#LUT data points
DOMAIN_MIN 0.000000 0.000000 0.000000
DOMAIN_MAX 0.903226 0.903226 0.903226
0.000000 0.000000 0.000000
0.031403 0.000000 0.000000
0.157440 0.000000 0.000000
0.404266 0.000000 0.000000
0.789246 0.000000 0.000000
0.000000 0.141144 0.000000
0.031403 0.141144 0.000000
0.157440 0.141144 0.000000
0.404266 0.141144 0.000000
0.789246 0.141144 0.000000
0.000000 0.351349 0.000000
0.031403 0.351349 0.000000
0.157440 0.351349 0.000000
0.404266 0.351349 0.000000
0.789246 0.351349 0.000000
0.000000 0.599060 0.000000
0.031403 0.599060 0.000000
0.157440 0.599060 0.000000
0.404266 0.599060 0.000000
0.789246 0.599060 0.000000
0.000000 0.874664 0.000000
0.031403 0.874664 0.000000
0.157440 0.874664 0.000000
0.404266 0.874664 0.000000
0.789246 0.874664 0.000000
0.000000 0.000000 0.283356
0.031403 0.000000 0.283356
0.157440 0.000000 0.283356
0.404266 0.000000 0.283356
0.789246 0.000000 0.283356
0.000000 0.141144 0.283356
0.031403 0.141144 0.283356
0.157440 0.141144 0.283356
0.404266 0.141144 0.283356
0.789246 0.141144 0.283356
0.000000 0.351349 0.283356
0.031403 0.351349 0.283356
0.157440 0.351349 0.283356
0.404266 0.351349 0.283356
0.789246 0.351349 0.283356
0.000000 0.599060 0.283356
0.031403 0.599060 0.283356
0.157440 0.599060 0.283356
0.404266 0.599060 0.283356
0.789246 0.599060 0.283356
0.000000 0.874664 0.283356
0.031403 0.874664 0.283356
0.157440 0.874664 0.283356
0.404266 0.874664 0.283356
0.789246 0.874664 0.283356
0.000000 0.000000 0.509827
0.031403 0.000000 0.509827
0.157440 0.000000 0.509827
0.404266 0.000000 0.509827
0.789246 0.000000 0.509827
0.000000 0.141144 0.509827
0.031403 0.141144 0.509827
0.157440 0.141144 0.509827
0.404266 0.141144 0.509827
0.789246 0.141144 0.509827
0.000000 0.351349 0.509827
0.031403 0.351349 0.509827
0.157440 0.351349 0.509827
0.404266 0.351349 0.509827
0.789246 0.351349 0.509827
0.000000 0.599060 0.509827
0.031403 0.599060 0.509827
0.157440 0.599060 0.509827
0.404266 0.599060 0.509827
0.789246 0.599060 0.509827
0.000000 0.874664 0.509827
0.031403 0.874664 0.509827
0.157440 0.874664 0.509827
0.404266 0.874664 0.509827
0.789246 0.874664 0.509827
0.000000 0.000000 0.718872
0.031403 0.000000 0.718872
0.157440 0.000000 0.718872
0.404266 0.000000 0.718872
0.789246 0.000000 0.718872
0.000000 0.141144 0.718872
0.031403 0.141144 0.718872
0.157440 0.141144 0.718872
0.404266 0.141144 0.718872
0.789246 0.141144 0.718872
0.000000 0.351349 0.718872
0.031403 0.351349 0.718872
0.157440 0.351349 0.718872
0.404266 0.351349 0.718872
0.789246 0.351349 0.718872
0.000000 0.599060 0.718872
0.031403 0.599060 0.718872
0.157440 0.599060 0.718872
0.404266 0.599060 0.718872
0.789246 0.599060 0.718872
0.000000 0.874664 0.718872
0.031403 0.874664 0.718872
0.157440 0.874664 0.718872
0.404266 0.874664 0.718872
0.789246 0.874664 0.718872
0.000000 0.000000 0.917358
0.031403 0.000000 0.917358
0.157440 0.000000 0.917358
0.404266 0.000000 0.917358
0.789246 0.000000 0.917358
0.000000 0.141144 0.917358
0.031403 0.141144 0.917358
0.157440 0.141144 0.917358
0.404266 0.141144 0.917358
0.789246 0.141144 0.917358
0.000000 0.351349 0.917358
0.031403 0.351349 0.917358
0.157440 0.351349 0.917358
0.404266 0.351349 0.917358
0.789246 0.351349 0.917358
0.000000 0.599060 0.917358
0.031403 0.599060 0.917358
0.157440 0.599060 0.917358
0.404266 0.599060 0.917358
0.789246 0.599060 0.917358
0.000000 0.874664 0.917358
0.031403 0.874664 0.917358
0.157440 0.874664 0.917358
0.404266 0.874664 0.917358
0.789246 0.874664 0.917358
