Executable/luts/mywarm.CUBE
#Created by: Adobe Photoshop Export Color Lookup Plugin
TITLE "mywarm"
#LUT size
LUT_3D_SIZE 32
#data domain
DOMAIN_MIN 0.0 0.0 0.0
DOMAIN_MAX 1.0 1.0 1.0
#LUT data points
0.000000 0.000000 0.000000
0.034515 0.000000 0.000000
0.068085 0.000000 0.000000
0.101318 0.000000 0.000000
0.134308 0.000000 0.000000
0.167175 0.000000 0.000000
0.199890 0.000000 0.000000
0.232483 0.000000 0.000000
0.265015 0.000000 0.000000
0.297455 0.000000 0.000000
0.329803 0.000000 0.000000
0.362122 0.000000 0.000000
0.394348 0.000000 0.000000
0.426544 0.000000 0.000000
0.458679 0.000000 0.000000
0.490784 0.000000 0.000000
0.522888 0.000000 0.000000
0.554901 0.000000 0.000000
0.586884 0.000000 0.000000
0.618835 0.000000 0.000000
0.650726 0.000000 0.000000
0.682617 0.000000 0.000000
0.714478 0.000000 0.000000
0.746307 0.000000 0.000000
0.778107 0.000000 0.000000
0.809875 0.000000 0.000000
0.841614 0.000000 0.000000
0.873322 0.000000 0.000000
0.905029 0.000000 0.000000
0.936707 0.000000 0.000000
0.968353 0.000000 0.000000
1.000000 0.000000 0.000000
0.000000 0.012268 0.000000
0.034515 0.012268 0.000000
0.068085 0.012268 0.000000
0.101318 0.012268 0.000000
0.134308 0.012268 0.000000
0.167175 0.012268 0.000000
0.199890 0.012268 0.000000
0.232483 0.012268 0.000000
0.265015 0.012268 0.000000
0.297455 0.012268 0.000000
0.329803 0.012268 0.000000
0.362122 0.012268 0.000000
0.394348 0.012268 0.000000
0.426544 0.012268 0.000000
0.458679 0.012268 0.000000
0.490784 0.012268 0.000000
0.522888 0.012268 0.000000
0.554901 0.012268 0.000000
0.586884 0.012268 0.000000
0.618835 0.012268 0.000000
0.650726 0.012268 0.000000
0.682617 0.012268 0.000000
0.714478 0.012268 0.000000
0.746307 0.012268 0.000000
0.778107 0.012268 0.000000
0.809875 0.012268 0.000000
0.841614 0.012268 0.000000
0.873322 0.012268 0.000000
0.905029 0.012268 0.000000
0.936707 0.012268 0.000000
0.968353 0.012268 0.000000
1.000000 0.012268 0.000000
0.000000 0.029785 0.000000
0.034515 0.029785 0.000000
0.068085 0.029785 0.000000
0.101318 0.029785 0.000000
0.134308 0.029785 0.000000
0.167175 0.029785 0.000000
0.199890 0.029785 0.000000
0.232483 0.029785 0.000000
0.265015 0.029785 0.000000
0.297455 0.029785 0.000000
0.329803 0.029785 0.000000
0.362122 0.029785 0.000000
0.394348 0.029785 0.000000
0.426544 0.029785 0.000000
0.458679 0.029785 0.000000
0.490784 0.029785 0.000000
0.522888 0.029785 0.000000
0.554901 0.029785 0.000000
0.586884 0.029785 0.000000
0.618835 0.029785 0.000000
0.650726 0.029785 0.000000
0.682617 0.029785 0.000000
0.714478 0.029785 0.000000
0.746307 0.029785 0.000000
0.778107 0.029785 0.000000
0.809875 0.029785 0.000000
0.841614 0.029785 0.000000
0.873322 0.029785 0.000000
0.905029 0.029785 0.000000
0.936707 0.029785 0.000000
0.968353 0.029785 0.000000
1.000000 0.029785 0.000000
0.000000 0.050079 0.000000
0.034515 0.050079 0.000000
0.068085 0.050079 0.000000
0.101318 0.050079 0.000000
0.134308 0.050079 0.000000
0.167175 0.050079 0.000000
0.199890 0.050079 0.000000
0.232483 0.050079 0.000000
0.265015 0.050079 0.000000
0.297455 0.050079 0.000000
0.329803 0.050079 0.000000
0.362122 0.050079 0.000000
0.394348 0.050079 0.000000
0.426544 0.050079 0.000000
0.458679 0.050079 0.000000
0.490784 0.050079 0.000000
0.522888 0.050079 0.000000
0.554901 0.050079 0.000000
0.586884 0.050079 0.000000
0.618835 0.050079 0.000000
0.650726 0.050079 0.000000
0.682617 0.050079 0.000000
0.714478 0.050079 0.000000
0.746307 0.050079 0.000000
0.778107 0.050079 0.000000
0.809875 0.050079 0.000000
0.841614 0.050079 0.000000
0.873322 0.050079 0.000000
0.905029 0.050079 0.000000
0.936707 0.050079 0.000000
0.968353 0.050079 0.000000
1.000000 0.050079 0.000000
0.000000 0.072418 0.000000
0.034515 0.072418 0.000000
0.068085 0.072418 0.000000
0.101318 0.072418 0.000000
0.134308 0.072418 0.000000
0.167175 0.072418 0.000000
0.199890 0.072418 0.000000
0.232483 0.072418 0.000000
0.265015 0.072418 0.000000
0.297455 0.072418 0.000000
0.329803 0.072418 0.000000
0.362122 0.072418 0.000000
0.394348 0.072418 0.000000
0.426544 0.072418 0.000000
0.458679 0.072418 0.000000
0.490784 0.072418 0.000000
0.522888 0.072418 0.000000
0.554901 0.072418 0.000000
0.586884 0.072418 0.000000
0.618835 0.072418 0.000000
0.650726 0.072418 0.000000
0.682617 0.072418 0.000000
0.714478 0.072418 0.000000
0.746307 0.072418 0.000000
0.778107 0.072418 0.000000
0.809875 0.072418 0.000000
0.841614 0.072418 0.000000
0.873322 0.072418 0.000000
0.905029 0.072418 0.000000
0.936707 0.072418 0.000000
0.968353 0.072418 0.000000
1.000000 0.072418 0.000000
0.000000 0.096405 0.000000
0.034515 0.096405 0.000000
0.068085 0.096405 0.000000
0.101318 0.096405 0.000000
0.134308 0.096405 0.000000
0.167175 0.096405 0.000000
0.199890 0.096405 0.000000
0.232483 0.096405 0.000000
0.265015 0.096405 0.000000
0.297455 0.096405 0.000000
0.329803 0.096405 0.000000
0.362122 0.096405 0.000000
0.394348 0.096405 0.000000
0.426544 0.096405 0.000000
0.458679 0.096405 0.000000
0.490784 0.096405 0.000000
0.522888 0.096405 0.000000
0.554901 0.096405 0.000000
0.586884 0.096405 0.000000
0.618835 0.096405 0.000000
0.650726 0.096405 0.000000
0.682617 0.096405 0.000000
0.714478 0.096405 0.000000
0.746307 0.096405 0.000000
0.778107 0.096405 0.000000
0.809875 0.096405 0.000000
0.841614 0.096405 0.000000
0.873322 0.096405 0.000000
0.905029 0.096405 0.000000
0.936707 0.096405 0.000000
0.968353 0.096405 0.000000
1.000000 0.096405 0.000000
0.000000 0.121796 0.000000
0.034515 0.121796 0.000000
0.068085 0.121796 0.000000
0.101318 0.121796 0.000000
0.134308 0.121796 0.000000
0.167175 0.121796 0.000000
0.199890 0.121796 0.000000
0.232483 0.121796 0.000000
0.265015 0.121796 0.000000
0.297455 0.121796 0.000000
0.329803 0.121796 0.000000
0.362122 0.121796 0.000000
0.394348 0.121796 0.000000
0.426544 0.121796 0.000000
0.458679 0.121796 0.000000
0.490784 0.121796 0.000000
0.522888 0.121796 0.000000
0.554901 0.121796 0.000000
0.586884 0.121796 0.000000
0.618835 0.121796 0.000000
0.650726 0.121796 0.000000
0.682617 0.121796 0.000000
0.714478 0.121796 0.000000
0.746307 0.121796 0.000000
0.778107 0.121796 0.000000
0.809875 0.121796 0.000000
0.841614 0.121796 0.000000
0.873322 0.121796 0.000000
0.905029 0.121796 0.000000
0.936707 0.121796 0.000000
0.968353 0.121796 0.000000
1.000000 0.121796 0.000000
0.000000 0.148407 0.000000
0.034515 0.148407 0.000000
0.068085 0.148407 0.000000
0.101318 0.148407 0.000000
0.134308 0.148407 0.000000
0.167175 0.148407 0.000000
0.199890 0.148407 0.000000
0.232483 0.148407 0.000000
0.265015 0.148407 0.000000
0.297455 0.148407 0.000000
0.329803 0.148407 0.000000
0.362122 0.148407 0.000000
0.394348 0.148407 0.000000
0.426544 0.148407 0.000000
0.458679 0.148407 0.000000
0.490784 0.148407 0.000000
0.522888 0.148407 0.000000
0.554901 0.148407 0.000000
0.586884 0.148407 0.000000
0.618835 0.148407 0.000000
0.650726 0.148407 0.000000
0.682617 0.148407 0.000000
0.714478 0.148407 0.000000
0.746307 0.148407 0.000000
0.778107 0.148407 0.000000
0.809875 0.148407 0.000000
0.841614 0.148407 0.000000
0.873322 0.148407 0.000000
0.905029 0.148407 0.000000
0.936707 0.148407 0.000000
0.968353 0.148407 0.000000
1.000000 0.148407 0.000000
0.000000 0.176117 0.000000
0.034515 0.176117 0.000000
0.068085 0.176117 0.000000
0.101318 0.176117 0.000000
0.134308 0.176117 0.000000
0.167175 0.176117 0.000000
0.199890 0.176117 0.000000
0.232483 0.176117 0.000000
0.265015 0.176117 0.000000
0.297455 0.176117 0.000000
0.329803 0.176117 0.000000
0.362122 0.176117 0.000000
0.394348 0.176117 0.000000
0.426544 0.176117 0.000000
0.458679 0.176117 0.000000
0.490784 0.176117 0.000000
0.522888 0.176117 0.000000
0.554901 0.176117 0.000000
0.586884 0.176117 0.000000
0.618835 0.176117 0.000000
0.650726 0.176117 0.000000
0.682617 0.176117 0.000000
0.714478 0.176117 0.000000
0.746307 0.176117 0.000000
0.778107 0.176117 0.000000
0.809875 0.176117 0.000000
0.841614 0.176117 0.000000
0.873322 0.176117 0.000000
0.905029 0.176117 0.000000
0.936707 0.176117 0.000000
0.968353 0.176117 0.000000
1.000000 0.176117 0.000000
0.000000 0.204834 0.000000
0.034515 0.204834 0.000000
0.068085 0.204834 0.000000
0.101318 0.204834 0.000000
0.134308 0.204834 0.000000
0.167175 0.204834 0.000000
0.199890 0.204834 0.000000
0.232483 0.204834 0.000000
0.265015 0.204834 0.000000
0.297455 0.204834 0.000000
0.329803 0.204834 0.000000
0.362122 0.204834 0.000000
0.394348 0.204834 0.000000
0.426544 0.204834 0.000000
0.458679 0.204834 0.000000
0.490784 0.204834 0.000000
0.522888 0.204834 0.000000
0.554901 0.204834 0.000000
0.586884 0.204834 0.000000
0.618835 0.204834 0.000000
0.650726 0.204834 0.000000
0.682617 0.204834 0.000000
0.714478 0.204834 0.000000
0.746307 0.204834 0.000000
0.778107 0.204834 0.000000
0.809875 0.204834 0.000000
0.841614 0.204834 0.000000
0.873322 0.204834 0.000000
0.905029 0.204834 0.000000
0.936707 0.204834 0.000000
0.968353 0.204834 0.000000
1.000000 0.204834 0.000000
0.000000 0.234436 0.000000
0.034515 0.234436 0.000000
0.068085 0.234436 0.000000
0.101318 0.234436 0.000000
0.134308 0.234436 0.000000
0.167175 0.234436 0.000000
0.199890 0.234436 0.000000
0.232483 0.234436 0.000000
0.265015 0.234436 0.000000
0.297455 0.234436 0.000000
0.329803 0.234436 0.000000
0.362122 0.234436 0.000000
0.394348 0.234436 0.000000
0.426544 0.234436 0.000000
0.458679 0.234436 0.000000
0.490784 0.234436 0.000000
0.522888 0.234436 0.000000
0.554901 0.234436 0.000000
0.586884 0.234436 0.000000
0.618835 0.234436 0.000000
0.650726 0.234436 0.000000
0.682617 0.234436 0.000000
0.714478 0.234436 0.000000
0.746307 0.234436 0.000000
0.778107 0.234436 0.000000
0.809875 0.234436 0.000000
0.841614 0.234436 0.000000
0.873322 0.234436 0.000000
0.905029 0.234436 0.000000
0.936707 0.234436 0.000000
0.968353 0.234436 0.000000
1.000000 0.234436 0.000000
0.000000 0.264923 0.000000
0.034515 0.264923 0.000000
0.068085 0.264923 0.000000
0.101318 0.264923 0.000000
0.134308 0.264923 0.000000
0.167175 0.264923 0.000000
0.199890 0.264923 0.000000
0.232483 0.264923 0.000000
0.265015 0.264923 0.000000
0.297455 0.264923 0.000000
0.329803 0.264923 0.000000
0.362122 0.264923 0.000000
0.394348 0.264923 0.000000
0.426544 0.264923 0.000000
0.458679 0.264923 0.000000
0.490784 0.264923 0.000000
0.522888 0.264923 0.000000
0.554901 0.264923 0.000000
0.586884 0.264923 0.000000
0.618835 0.264923 0.000000
0.650726 0.264923 0.000000
0.682617 0.264923 0.000000
0.714478 0.264923 0.000000
0.746307 0.264923 0.000000
0.778107 0.264923 0.000000
0.809875 0.264923 0.000000
0.841614 0.264923 0.000000
0.873322 0.264923 0.000000
0.905029 0.264923 0.000000
0.936707 0.264923 0.000000
0.968353 0.264923 0.000000
1.000000 0.264923 0.000000
0.000000 0.296173 0.000000
0.034515 0.296173 0.000000
0.068085 0.296173 0.000000
0.101318 0.296173 0.000000
0.134308 0.296173 0.000000
0.167175 0.296173 0.000000
0.199890 0.296173 0.000000
0.232483 0.296173 0.000000
0.265015 0.296173 0.000000
0.297455 0.296173 0.000000
0.329803 0.296173 0.000000
0.362122 0.296173 0.000000
0.394348 0.296173 0.000000
0.426544 0.296173 0.000000
0.458679 0.296173 0.000000
0.490784 0.296173 0.000000
0.522888 0.296173 0.000000
0.554901 0.296173 0.000000
0.586884 0.296173 0.000000
0.618835 0.296173 0.000000
0.650726 0.296173 0.000000
0.682617 0.296173 0.000000
0.714478 0.296173 0.000000
0.746307 0.296173 0.000000
0.778107 0.296173 0.000000
0.809875 0.296173 0.000000
0.841614 0.296173 0.000000
0.873322 0.296173 0.000000
0.905029 0.296173 0.000000
0.936707 0.296173 0.000000
0.968353 0.296173 0.000000
1.000000 0.296173 0.000000
0.000000 0.328186 0.000000
0.034515 0.328186 0.000000
0.068085 0.328186 0.000000
0.101318 0.328186 0.000000
0.134308 0.328186 0.000000
0.167175 0.328186 0.000000
0.199890 0.328186 0.000000
0.232483 0.328186 0.000000
0.265015 0.328186 0.000000
0.297455 0.328186 0.000000
0.329803 0.328186 0.000000
0.362122 0.328186 0.000000
0.394348 0.328186 0.000000
0.426544 0.328186 0.000000
0.458679 0.328186 0.000000
0.490784 0.328186 0.000000
0.522888 0.328186 0.000000
0.554901 0.328186 0.000000
0.586884 0.328186 0.000000
0.618835 0.328186 0.000000
0.650726 0.328186 0.000000
0.682617 0.328186 0.000000
0.714478 0.328186 0.000000
0.746307 0.328186 0.000000
0.778107 0.328186 0.000000
0.809875 0.328186 0.000000
0.841614 0.328186 0.000000
0.873322 0.328186 0.000000
0.905029 0.328186 0.000000
0.936707 0.328186 0.000000
0.968353 0.328186 0.000000
1.000000 0.328186 0.000000
0.000000 0.360901 0.000000
0.034515 0.360901 0.000000
0.068085 0.360901 0.000000
0.101318 0.360901 0.000000
0.134308 0.360901 0.000000
0.167175 0.360901 0.000000
0.199890 0.360901 0.000000
0.232483 0.360901 0.000000
0.265015 0.360901 0.000000
0.297455 0.360901 0.000000
0.329803 0.360901 0.000000
0.362122 0.360901 0.000000
0.394348 0.360901 0.000000
0.426544 0.360901 0.000000
0.458679 0.360901 0.000000
0.490784 0.360901 0.000000
0.522888 0.360901 0.000000
0.554901 0.360901 0.000000
0.586884 0.360901 0.000000
0.618835 0.360901 0.000000
0.650726 0.360901 0.000000
0.682617 0.360901 0.000000
0.714478 0.360901 0.000000
0.746307 0.360901 0.000000
0.778107 0.360901 0.000000
0.809875 0.360901 0.000000
0.841614 0.360901 0.000000
0.873322 0.360901 0.000000
0.905029 0.360901 0.000000
0.936707 0.360901 0.000000
0.968353 0.360901 0.000000
1.000000 0.360901 0.000000
0.000000 0.394257 0.000000
0.034515 0.394257 0.000000
0.068085 0.394257 0.000000
0.101318 0.394257 0.000000
0.134308 0.394257 0.000000
0.167175 0.394257 0.000000
0.199890 0.394257 0.000000
0.232483 0.394257 0.000000
0.265015 0.394257 0.000000
0.297455 0.394257 0.000000
0.329803 0.394257 0.000000
0.362122 0.394257 0.000000
0.394348 0.394257 0.000000
0.426544 0.394257 0.000000
0.458679 0.394257 0.000000
0.490784 0.394257 0.000000
0.522888 0.394257 0.000000
0.554901 0.394257 0.000000
0.586884 0.394257 0.000000
0.618835 0.394257 0.000000
0.650726 0.394257 0.000000
0.682617 0.394257 0.000000
0.714478 0.394257 0.000000
0.746307 0.394257 0.000000
0.778107 0.394257 0.000000
0.809875 0.394257 0.000000
0.841614 0.394257 0.000000
0.873322 0.394257 0.000000
0.905029 0.394257 0.000000
0.936707 0.394257 0.000000
0.968353 0.394257 0.000000
1.000000 0.394257 0.000000
0.000000 0.428314 0.000000
0.034515 0.428314 0.000000
0.068085 0.428314 0.000000
0.101318 0.428314 0.000000
0.134308 0.428314 0.000000
0.167175 0.428314 0.000000
0.199890 0.428314 0.000000
0.232483 0.428314 0.000000
0.265015 0.428314 0.000000
0.297455 0.428314 0.000000
0.329803 0.428314 0.000000
0.362122 0.428314 0.000000
0.394348 0.428314 0.000000
0.426544 0.428314 0.000000
0.458679 0.428314 0.000000
0.490784 0.428314 0.000000
0.522888 0.428314 0.000000
0.554901 0.428314 0.000000
0.586884 0.428314 0.000000
0.618835 0.428314 0.000000
0.650726 0.428314 0.000000
0.682617 0.428314 0.000000
0.714478 0.428314 0.000000
0.746307 0.428314 0.000000
0.778107 0.428314 0.000000
0.809875 0.428314 0.000000
0.841614 0.428314 0.000000
0.873322 0.428314 0.000000
0.905029 0.428314 0.000000
0.936707 0.428314 0.000000
0.968353 0.428314 0.000000
1.000000 0.428314 0.000000
0.000000 0.462921 0.000000
0.034515 0.462921 0.000000
0.068085 0.462921 0.000000
0.101318 0.462921 0.000000
0.134308 0.462921 0.000000
0.167175 0.462921 0.000000
0.199890 0.462921 0.000000
0.232483 0.462921 0.000000
0.265015 0.462921 0.000000
0.297455 0.462921 0.000000
0.329803 0.462921 0.000000
0.362122 0.462921 0.000000
0.394348 0.462921 0.000000
0.426544 0.462921 0.000000
0.458679 0.462921 0.000000
0.490784 0.462921 0.000000
0.522888 0.462921 0.000000
0.554901 0.462921 0.000000
0.586884 0.462921 0.000000
0.618835 0.462921 0.000000
0.650726 0.462921 0.000000
0.682617 0.462921 0.000000
0.714478 0.462921 0.000000
0.746307 0.462921 0.000000
0.778107 0.462921 0.000000
0.809875 0.462921 0.000000
0.841614 0.462921 0.000000
0.873322 0.462921 0.000000
0.905029 0.462921 0.000000
0.936707 0.462921 0.000000
0.968353 0.462921 0.000000
1.000000 0.462921 0.000000
0.000000 0.498108 0.000000
0.034515 0.498108 0.000000
0.068085 0.498108 0.000000
0.101318 0.498108 0.000000
0.134308 0.498108 0.000000
0.167175 0.498108 0.000000
0.199890 0.498108 0.000000
0.232483 0.498108 0.000000
0.265015 0.498108 0.000000
0.297455 0.498108 0.000000
0.329803 0.498108 0.000000
0.362122 0.498108 0.000000
0.394348 0.498108 0.000000
0.426544 0.498108 0.000000
0.458679 0.498108 0.000000
0.490784 0.498108 0.000000
0.522888 0.498108 0.000000
0.554901 0.498108 0.000000
0.586884 0.498108 0.000000
0.618835 0.498108 0.000000
0.650726 0.498108 0.000000
0.682617 0.498108 0.000000
0.714478 0.498108 0.000000
0.746307 0.498108 0.000000
0.778107 0.498108 0.000000
0.809875 0.498108 0.000000
0.841614 0.498108 0.000000
0.873322 0.498108 0.000000
0.905029 0.498108 0.000000
0.936707 0.498108 0.000000
0.968353 0.498108 0.000000
1.000000 0.498108 0.000000
0.000000 0.533875 0.000000
0.034515 0.533875 0.000000
0.068085 0.533875 0.000000
0.101318 0.533875 0.000000
0.134308 0.533875 0.000000
0.167175 0.533875 0.000000
0.199890 0.533875 0.000000
0.232483 0.533875 0.000000
0.265015 0.533875 0.000000
0.297455 0.533875 0.000000
0.329803 0.533875 0.000000
0.362122 0.533875 0.000000
0.394348 0.533875 0.000000
0.426544 0.533875 0.000000
0.458679 0.533875 0.000000
0.490784 0.533875 0.000000
0.522888 0.533875 0.000000
0.554901 0.533875 0.000000
0.586884 0.533875 0.000000
0.618835 0.533875 0.000000
0.650726 0.533875 0.000000
0.682617 0.533875 0.000000
0.714478 0.533875 0.000000
0.746307 0.533875 0.000000
0.778107 0.533875 0.000000
0.809875 0.533875 0.000000
0.841614 0.533875 0.000000
0.873322 0.533875 0.000000
0.905029 0.533875 0.000000
0.936707 0.533875 0.000000
0.968353 0.533875 0.000000
1.000000 0.533875 0.000000
0.000000 0.570160 0.000000
0.034515 0.570160 0.000000
0.068085 0.570160 0.000000
0.101318 0.570160 0.000000
0.134308 0.570160 0.000000
0.167175 0.570160 0.000000
0.199890 0.570160 0.000000
0.232483 0.570160 0.000000
0.265015 0.570160 0.000000
0.297455 0.570160 0.000000
0.329803 0.570160 0.000000
0.362122 0.570160 0.000000
0.394348 0.570160 0.000000
0.426544 0.570160 0.000000
0.458679 0.570160 0.000000
0.490784 0.570160 0.000000
0.522888 0.570160 0.000000
0.554901 0.570160 0.000000
0.586884 0.570160 0.000000
0.618835 0.570160 0.000000
0.650726 0.570160 0.000000
0.682617 0.570160 0.000000
0.714478 0.570160 0.000000
0.746307 0.570160 0.000000
0.778107 0.570160 0.000000
0.809875 0.570160 0.000000
0.841614 0.570160 0.000000
0.873322 0.570160 0.000000
0.905029 0.570160 0.000000
0.936707 0.570160 0.000000
0.968353 0.570160 0.000000
1.000000 0.570160 0.000000
0.000000 0.606964 0.000000
0.034515 0.606964 0.000000
0.068085 0.606964 0.000000
0.101318 0.606964 0.000000
0.134308 0.606964 0.000000
0.167175 0.606964 0.000000
0.199890 0.606964 0.000000
0.232483 0.606964 0.000000
0.265015 0.606964 0.000000
0.297455 0.606964 0.000000
0.329803 0.606964 0.000000
0.362122 0.606964 0.000000
0.394348 0.606964 0.000000
0.426544 0.606964 0.000000
0.458679 0.606964 0.000000
0.490784 0.606964 0.000000
0.522888 0.606964 0.000000
0.554901 0.606964 0.000000
0.586884 0.606964 0.000000
0.618835 0.606964 0.000000
0.650726 0.606964 0.000000
0.682617 0.606964 0.000000
0.714478 0.606964 0.000000
0.746307 0.606964 0.000000
0.778107 0.606964 0.000000
0.809875 0.606964 0.000000
0.841614 0.606964 0.000000
0.873322 0.606964 0.000000
0.905029 0.606964 0.000000
0.936707 0.606964 0.000000
0.968353 0.606964 0.000000
1.000000 0.606964 0.000000
0.000000 0.644257 0.000000
0.034515 0.644257 0.000000
0.068085 0.644257 0.000000
0.101318 0.644257 0.000000
0.134308 0.644257 0.000000
0.167175 0.644257 0.000000
0.199890 0.644257 0.000000
0.232483 0.644257 0.000000
0.265015 0.644257 0.000000
0.297455 0.644257 0.000000
0.329803 0.644257 0.000000
0.362122 0.644257 0.000000
0.394348 0.644257 0.000000
0.426544 0.644257 0.000000
0.458679 0.644257 0.000000
0.490784 0.644257 0.000000
0.522888 0.644257 0.000000
0.554901 0.644257 0.000000
0.586884 0.644257 0.000000
0.618835 0.644257 0.000000
0.650726 0.644257 0.000000
0.682617 0.644257 0.000000
0.714478 0.644257 0.000000
0.746307 0.644257 0.000000
0.778107 0.644257 0.000000
0.809875 0.644257 0.000000
0.841614 0.644257 0.000000
0.873322 0.644257 0.000000
0.905029 0.644257 0.000000
0.936707 0.644257 0.000000
0.968353 0.644257 0.000000
1.000000 0.644257 0.000000
0.000000 0.682037 0.000000
0.034515 0.682037 0.000000
0.068085 0.682037 0.000000
0.101318 0.682037 0.000000
0.134308 0.682037 0.000000
0.167175 0.682037 0.000000
0.199890 0.682037 0.000000
0.232483 0.682037 0.000000
0.265015 0.682037 0.000000
0.297455 0.682037 0.000000
0.329803 0.682037 0.000000
0.362122 0.682037 0.000000
0.394348 0.682037 0.000000
0.426544 0.682037 0.000000
0.458679 0.682037 0.000000
0.490784 0.682037 0.000000
0.522888 0.682037 0.000000
0.554901 0.682037 0.000000
0.586884 0.682037 0.000000
0.618835 0.682037 0.000000
0.650726 0.682037 0.000000
0.682617 0.682037 0.000000
0.714478 0.682037 0.000000
0.746307 0.682037 0.000000
0.778107 0.682037 0.000000
0.809875 0.682037 0.000000
0.841614 0.682037 0.000000
0.873322 0.682037 0.000000
0.905029 0.682037 0.000000
0.936707 0.682037 0.000000
0.968353 0.682037 0.000000
1.000000 0.682037 0.000000
0.000000 0.720276 0.000000
0.034515 0.720276 0.000000
0.068085 0.720276 0.000000
0.101318 0.720276 0.000000
0.134308 0.720276 0.000000
0.167175 0.720276 0.000000
0.199890 0.720276 0.000000
0.232483 0.720276 0.000000
0.265015 0.720276 0.000000
0.297455 0.720276 0.000000
0.329803 0.720276 0.000000
0.362122 0.720276 0.000000
0.394348 0.720276 0.000000
0.426544 0.720276 0.000000
0.458679 0.720276 0.000000
0.490784 0.720276 0.000000
0.522888 0.720276 0.000000
0.554901 0.720276 0.000000
0.586884 0.720276 0.000000
0.618835 0.720276 0.000000
0.650726 0.720276 0.000000
0.682617 0.720276 0.000000
0.714478 0.720276 0.000000
0.746307 0.720276 0.000000
0.778107 0.720276 0.000000
0.809875 0.720276 0.000000
0.841614 0.720276 0.000000
0.873322 0.720276 0.000000
0.905029 0.720276 0.000000
0.936707 0.720276 0.000000
0.968353 0.720276 0.000000
1.000000 0.720276 0.000000
0.000000 0.759003 0.000000
0.034515 0.759003 0.000000
0.068085 0.759003 0.000000
0.101318 0.759003 0.000000
0.134308 0.759003 0.000000
0.167175 0.759003 0.000000
0.199890 0.759003 0.000000
0.232483 0.759003 0.000000
0.265015 0.759003 0.000000
0.297455 0.759003 0.000000
0.329803 0.759003 0.000000
0.362122 0.759003 0.000000
0.394348 0.759003 0.000000
0.426544 0.759003 0.000000
0.458679 0.759003 0.000000
0.490784 0.759003 0.000000
0.522888 0.759003 0.000000
0.554901 0.759003 0.000000
0.586884 0.759003 0.000000
0.618835 0.759003 0.000000
0.650726 0.759003 0.000000
0.682617 0.759003 0.000000
0.714478 0.759003 0.000000
0.746307 0.759003 0.000000
0.778107 0.759003 0.000000
0.809875 0.759003 0.000000
0.841614 0.759003 0.000000
0.873322 0.759003 0.000000
0.905029 0.759003 0.000000
0.936707 0.759003 0.000000
0.968353 0.759003 0.000000
1.000000 0.759003 0.000000
0.000000 0.798126 0.000000
0.034515 0.798126 0.000000
0.068085 0.798126 0.000000
0.101318 0.798126 0.000000
0.134308 0.798126 0.000000
0.167175 0.798126 0.000000
0.199890 0.798126 0.000000
0.232483 0.798126 0.000000
0.265015 0.798126 0.000000
0.297455 0.798126 0.000000
0.329803 0.798126 0.000000
0.362122 0.798126 0.000000
0.394348 0.798126 0.000000
0.426544 0.798126 0.000000
0.458679 0.798126 0.000000
0.490784 0.798126 0.000000
0.522888 0.798126 0.000000
0.554901 0.798126 0.000000
0.586884 0.798126 0.000000
0.618835 0.798126 0.000000
0.650726 0.798126 0.000000
0.682617 0.798126 0.000000
0.714478 0.798126 0.000000
0.746307 0.798126 0.000000
0.778107 0.798126 0.000000
0.809875 0.798126 0.000000
0.841614 0.798126 0.000000
0.873322 0.798126 0.000000
0.905029 0.798126 0.000000
0.936707 0.798126 0.000000
0.968353 0.798126 0.000000
1.000000 0.798126 0.000000
0.000000 0.837677 0.000000
0.034515 0.837677 0.000000
0.068085 0.837677 0.000000
0.101318 0.837677 0.000000
0.134308 0.837677 0.000000
0.167175 0.837677 0.000000
0.199890 0.837677 0.000000
0.232483 0.837677 0.000000
0.265015 0.837677 0.000000
0.297455 0.837677 0.000000
0.329803 0.837677 0.000000
0.362122 0.837677 0.000000
0.394348 0.837677 0.000000
0.426544 0.837677 0.000000
0.458679 0.837677 0.000000
0.490784 0.837677 0.000000
0.522888 0.837677 0.000000
0.554901 0.837677 0.000000
