Executable/luts/mywarm.CUBE
#Created by: Adobe Photoshop Export Color Lookup Plugin
TITLE "mywarm"
#LUT size
LUT_3D_SIZE 5
#data domain
#LUT data points
DOMAIN_MIN 0.000000 0.000000 0.000000
DOMAIN_MAX 0.903226 0.903226 0.903226
0.000000 0.000000 0.000000
0.232483 0.000000 0.000000
0.458679 0.000000 0.000000
0.682617 0.000000 0.000000
0.905029 0.000000 0.000000
0.000000 0.148407 0.000000
0.232483 0.148407 0.000000
0.458679 0.148407 0.000000
0.682617 0.148407 0.000000
0.905029 0.148407 0.000000
0.000000 0.360901 0.000000
0.232483 0.360901 0.000000
0.458679 0.360901 0.000000
0.682617 0.360901 0.000000
0.905029 0.360901 0.000000
0.000000 0.606964 0.000000
0.232483 0.606964 0.000000
0.458679 0.606964 0.000000
0.682617 0.606964 0.000000
0.905029 0.606964 0.000000
0.000000 0.877655 0.000000
0.232483 0.877655 0.000000
0.458679 0.877655 0.000000
0.682617 0.877655 0.000000
0.905029 0.877655 0.000000
0.000000 0.000000 0.026550
0.232483 0.000000 0.026550
0.458679 0.000000 0.026550
0.682617 0.000000 0.026550
0.905029 0.000000 0.026550
0.000000 0.148407 0.026550
0.232483 0.148407 0.026550
0.458679 0.148407 0.026550
0.682617 0.148407 0.026550
0.905029 0.148407 0.026550
0.000000 0.360901 0.026550
0.232483 0.360901 0.026550
0.458679 0.360901 0.026550
0.682617 0.360901 0.026550
0.905029 0.360901 0.026550
0.000000 0.606964 0.026550
0.232483 0.606964 0.026550
0.458679 0.606964 0.026550
0.682617 0.606964 0.026550
0.905029 0.606964 0.026550
0.000000 0.877655 0.026550
0.232483 0.877655 0.026550
0.458679 0.877655 0.026550
0.682617 0.877655 0.026550
0.905029 0.877655 0.026550
0.000000 0.000000 0.143860
0.232483 0.000000 0.143860
0.458679 0.000000 0.143860
0.682617 0.000000 0.143860
0.905029 0.000000 0.143860
0.000000 0.148407 0.143860
0.232483 0.148407 0.143860
0.458679 0.148407 0.143860
0.682617 0.148407 0.143860
0.905029 0.148407 0.143860
0.000000 0.360901 0.143860
0.232483 0.360901 0.143860
0.458679 0.360901 0.143860
0.682617 0.360901 0.143860
0.905029 0.360901 0.143860
0.000000 0.606964 0.143860
0.232483 0.606964 0.143860
0.458679 0.606964 0.143860
0.682617 0.606964 0.143860
0.905029 0.606964 0.143860
0.000000 0.877655 0.143860
0.232483 0.877655 0.143860
0.458679 0.877655 0.143860
0.682617 0.877655 0.143860
0.905029 0.877655 0.143860
0.000000 0.000000 0.386780
0.232483 0.000000 0.386780
0.458679 0.000000 0.386780
0.682617 0.000000 0.386780
0.905029 0.000000 0.386780
0.000000 0.148407 0.386780
0.232483 0.148407 0.386780
0.458679 0.148407 0.386780
0.682617 0.148407 0.386780
0.905029 0.148407 0.386780
0.000000 0.360901 0.386780
0.232483 0.360901 0.386780
0.458679 0.360901 0.386780
0.682617 0.360901 0.386780
0.905029 0.360901 0.386780
0.000000 0.606964 0.386780
0.232483 0.606964 0.386780
0.458679 0.606964 0.386780
0.682617 0.606964 0.386780
0.905029 0.606964 0.386780
0.000000 0.877655 0.386780
0.232483 0.877655 0.386780
0.458679 0.877655 0.386780
0.682617 0.877655 0.386780
0.905029 0.877655 0.386780
0.000000 0.000000 0.780182
0.232483 0.000000 0.780182
0.458679 0.000000 0.780182
0.682617 0.000000 0.780182
0.905029 0.000000 0.780182
0.000000 0.148407 0.780182
0.232483 0.148407 0.780182
0.458679 0.148407 0.780182
0.682617 0.148407 0.780182
0.905029 0.148407 0.780182
0.000000 0.360901 0.780182
0.232483 0.360901 0.780182
0.458679 0.360901 0.780182
0.682617 0.360901 0.780182
0.905029 0.360901 0.780182
0.000000 0.606964 0.780182
0.232483 0.606964 0.780182
0.458679 0.606964 0.780182
0.682617 0.606964 0.780182
0.905029 0.606964 0.780182
0.000000 0.877655 0.780182
0.232483 0.877655 0.780182
0.458679 0.877655 0.780182
0.682617 0.877655 0.780182
0.905029 0.877655 0.780182
