Executable/luts/mywarm.CUBE
#Created by: Adobe Photoshop Export Color Lookup Plugin
TITLE "mywarm"
#LUT size
LUT_3D_SIZE 8
#data domain
#LUT data points
DOMAIN_MIN 0.000000 0.000000 0.000000
DOMAIN_MAX 0.903226 0.903226 0.903226
0.000000 0.000000 0.000000
0.134308 0.000000 0.000000
0.265015 0.000000 0.000000
0.394348 0.000000 0.000000
0.522888 0.000000 0.000000
0.650726 0.000000 0.000000
0.778107 0.000000 0.000000
0.905029 0.000000 0.000000
0.000000 0.072418 0.000000
0.134308 0.072418 0.000000
0.265015 0.072418 0.000000
0.394348 0.072418 0.000000
0.522888 0.072418 0.000000
0.650726 0.072418 0.000000
0.778107 0.072418 0.000000
0.905029 0.072418 0.000000
0.000000 0.176117 0.000000
0.134308 0.176117 0.000000
0.265015 0.176117 0.000000
0.394348 0.176117 0.000000
0.522888 0.176117 0.000000
0.650726 0.176117 0.000000
0.778107 0.176117 0.000000
0.905029 0.176117 0.000000
0.000000 0.296173 0.000000
0.134308 0.296173 0.000000
0.265015 0.296173 0.000000
0.394348 0.296173 0.000000
0.522888 0.296173 0.000000
0.650726 0.296173 0.000000
0.778107 0.296173 0.000000
0.905029 0.296173 0.000000
0.000000 0.428314 0.000000
0.134308 0.428314 0.000000
0.265015 0.428314 0.000000
0.394348 0.428314 0.000000
0.522888 0.428314 0.000000
0.650726 0.428314 0.000000
0.778107 0.428314 0.000000
0.905029 0.428314 0.000000
0.000000 0.570160 0.000000
0.134308 0.570160 0.000000
0.265015 0.570160 0.000000
0.394348 0.570160 0.000000
0.522888 0.570160 0.000000
0.650726 0.570160 0.000000
0.778107 0.570160 0.000000
0.905029 0.570160 0.000000
0.000000 0.720276 0.000000
0.134308 0.720276 0.000000
0.265015 0.720276 0.000000
0.394348 0.720276 0.000000
0.522888 0.720276 0.000000
0.650726 0.720276 0.000000
0.778107 0.720276 0.000000
0.905029 0.720276 0.000000
0.000000 0.877655 0.000000
0.134308 0.877655 0.000000
0.265015 0.877655 0.000000
0.394348 0.877655 0.000000
0.522888 0.877655 0.000000
0.650726 0.877655 0.000000
0.778107 0.877655 0.000000
0.905029 0.877655 0.000000
0.000000 0.000000 0.006805
0.134308 0.000000 0.006805
0.265015 0.000000 0.006805
0.394348 0.000000 0.006805
0.522888 0.000000 0.006805
0.650726 0.000000 0.006805
0.778107 0.000000 0.006805
0.905029 0.000000 0.006805
0.000000 0.072418 0.006805
0.134308 0.072418 0.006805
0.265015 0.072418 0.006805
0.394348 0.072418 0.006805
0.522888 0.072418 0.006805
0.650726 0.072418 0.006805
0.778107 0.072418 0.006805
0.905029 0.072418 0.006805
0.000000 0.176117 0.006805
0.134308 0.176117 0.006805
0.265015 0.176117 0.006805
0.394348 0.176117 0.006805
0.522888 0.176117 0.006805
0.650726 0.176117 0.006805
0.778107 0.176117 0.006805
0.905029 0.176117 0.006805
0.000000 0.296173 0.006805
0.134308 0.296173 0.006805
0.265015 0.296173 0.006805
0.394348 0.296173 0.006805
0.522888 0.296173 0.006805
0.650726 0.296173 0.006805
0.778107 0.296173 0.006805
0.905029 0.296173 0.006805
0.000000 0.428314 0.006805
0.134308 0.428314 0.006805
0.265015 0.428314 0.006805
0.394348 0.428314 0.006805
0.522888 0.428314 0.006805
0.650726 0.428314 0.006805
0.778107 0.428314 0.006805
0.905029 0.428314 0.006805
0.000000 0.570160 0.006805
0.134308 0.570160 0.006805
0.265015 0.570160 0.006805
0.394348 0.570160 0.006805
0.522888 0.570160 0.006805
0.650726 0.570160 0.006805
0.778107 0.570160 0.006805
0.905029 0.570160 0.006805
0.000000 0.720276 0.006805
0.134308 0.720276 0.006805
0.265015 0.720276 0.006805
0.394348 0.720276 0.006805
0.522888 0.720276 0.006805
0.650726 0.720276 0.006805
0.778107 0.720276 0.006805
0.905029 0.720276 0.006805
0.000000 0.877655 0.006805
0.134308 0.877655 0.006805
0.265015 0.877655 0.006805
0.394348 0.877655 0.006805
0.522888 0.877655 0.006805
0.650726 0.877655 0.006805
0.778107 0.877655 0.006805
0.905029 0.877655 0.006805
0.000000 0.000000 0.036743
0.134308 0.000000 0.036743
0.265015 0.000000 0.036743
0.394348 0.000000 0.036743
0.522888 0.000000 0.036743
0.650726 0.000000 0.036743
0.778107 0.000000 0.036743
0.905029 0.000000 0.036743
0.000000 0.072418 0.036743
0.134308 0.072418 0.036743
0.265015 0.072418 0.036743
0.394348 0.072418 0.036743
0.522888 0.072418 0.036743
0.650726 0.072418 0.036743
0.778107 0.072418 0.036743
0.905029 0.072418 0.036743
0.000000 0.176117 0.036743
0.134308 0.176117 0.036743
0.265015 0.176117 0.036743
0.394348 0.176117 0.036743
0.522888 0.176117 0.036743
0.650726 0.176117 0.036743
0.778107 0.176117 0.036743
0.905029 0.176117 0.036743
0.000000 0.296173 0.036743
0.134308 0.296173 0.036743
0.265015 0.296173 0.036743
0.394348 0.296173 0.036743
0.522888 0.296173 0.036743
0.650726 0.296173 0.036743
0.778107 0.296173 0.036743
0.905029 0.296173 0.036743
0.000000 0.428314 0.036743
0.134308 0.428314 0.036743
0.265015 0.428314 0.036743
0.394348 0.428314 0.036743
0.522888 0.428314 0.036743
0.650726 0.428314 0.036743
0.778107 0.428314 0.036743
0.905029 0.428314 0.036743
0.000000 0.570160 0.036743
0.134308 0.570160 0.036743
0.265015 0.570160 0.036743
0.394348 0.570160 0.036743
0.522888 0.570160 0.036743
0.650726 0.570160 0.036743
0.778107 0.570160 0.036743
0.905029 0.570160 0.036743
0.000000 0.720276 0.036743
0.134308 0.720276 0.036743
0.265015 0.720276 0.036743
0.394348 0.720276 0.036743
0.522888 0.720276 0.036743
0.650726 0.720276 0.036743
0.778107 0.720276 0.036743
0.905029 0.720276 0.036743
0.000000 0.877655 0.036743
0.134308 0.877655 0.036743
0.265015 0.877655 0.036743
0.394348 0.877655 0.036743
0.522888 0.877655 0.036743
0.650726 0.877655 0.036743
0.778107 0.877655 0.036743
0.905029 0.877655 0.036743
0.000000 0.000000 0.098785
0.134308 0.000000 0.098785
0.265015 0.000000 0.098785
0.394348 0.000000 0.098785
0.522888 0.000000 0.098785
0.650726 0.000000 0.098785
0.778107 0.000000 0.098785
0.905029 0.000000 0.098785
0.000000 0.072418 0.098785
0.134308 0.072418 0.098785
0.265015 0.072418 0.098785
0.394348 0.072418 0.098785
0.522888 0.072418 0.098785
0.650726 0.072418 0.098785
0.778107 0.072418 0.098785
0.905029 0.072418 0.098785
0.000000 0.176117 0.098785
0.134308 0.176117 0.098785
0.265015 0.176117 0.098785
0.394348 0.176117 0.098785
0.522888 0.176117 0.098785
0.650726 0.176117 0.098785
0.778107 0.176117 0.098785
0.905029 0.176117 0.098785
0.000000 0.296173 0.098785
0.134308 0.296173 0.098785
0.265015 0.296173 0.098785
0.394348 0.296173 0.098785
0.522888 0.296173 0.098785
0.650726 0.296173 0.098785
0.778107 0.296173 0.098785
0.905029 0.296173 0.098785
0.000000 0.428314 0.098785
0.134308 0.428314 0.098785
0.265015 0.428314 0.098785
0.394348 0.428314 0.098785
0.522888 0.428314 0.098785
0.650726 0.428314 0.098785
0.778107 0.428314 0.098785
0.905029 0.428314 0.098785
0.000000 0.570160 0.098785
0.134308 0.570160 0.098785
0.265015 0.570160 0.098785
0.394348 0.570160 0.098785
0.522888 0.570160 0.098785
0.650726 0.570160 0.098785
0.778107 0.570160 0.098785
0.905029 0.570160 0.098785
0.000000 0.720276 0.098785
0.134308 0.720276 0.098785
0.265015 0.720276 0.098785
0.394348 0.720276 0.098785
0.522888 0.720276 0.098785
0.650726 0.720276 0.098785
0.778107 0.720276 0.098785
0.905029 0.720276 0.098785
0.000000 0.877655 0.098785
0.134308 0.877655 0.098785
0.265015 0.877655 0.098785
0.394348 0.877655 0.098785
0.522888 0.877655 0.098785
0.650726 0.877655 0.098785
0.778107 0.877655 0.098785
0.905029 0.877655 0.098785
0.000000 0.000000 0.199280
0.134308 0.000000 0.199280
0.265015 0.000000 0.199280
0.394348 0.000000 0.199280
0.522888 0.000000 0.199280
0.650726 0.000000 0.199280
0.778107 0.000000 0.199280
0.905029 0.000000 0.199280
0.000000 0.072418 0.199280
0.134308 0.072418 0.199280
0.265015 0.072418 0.199280
0.394348 0.072418 0.199280
0.522888 0.072418 0.199280
0.650726 0.072418 0.199280
0.778107 0.072418 0.199280
0.905029 0.072418 0.199280
0.000000 0.176117 0.199280
0.134308 0.176117 0.199280
0.265015 0.176117 0.199280
0.394348 0.176117 0.199280
0.522888 0.176117 0.199280
0.650726 0.176117 0.199280
0.778107 0.176117 0.199280
0.905029 0.176117 0.199280
0.000000 0.296173 0.199280
0.134308 0.296173 0.199280
0.265015 0.296173 0.199280
0.394348 0.296173 0.199280
0.522888 0.296173 0.199280
0.650726 0.296173 0.199280
0.778107 0.296173 0.199280
0.905029 0.296173 0.199280
0.000000 0.428314 0.199280
0.134308 0.428314 0.199280
0.265015 0.428314 0.199280
0.394348 0.428314 0.199280
0.522888 0.428314 0.199280
0.650726 0.428314 0.199280
0.778107 0.428314 0.199280
0.905029 0.428314 0.199280
0.000000 0.570160 0.199280
0.134308 0.570160 0.199280
0.265015 0.570160 0.199280
0.394348 0.570160 0.199280
0.522888 0.570160 0.199280
0.650726 0.570160 0.199280
0.778107 0.570160 0.199280
0.905029 0.570160 0.199280
0.000000 0.720276 0.199280
0.134308 0.720276 0.199280
0.265015 0.720276 0.199280
0.394348 0.720276 0.199280
0.522888 0.720276 0.199280
0.650726 0.720276 0.199280
0.778107 0.720276 0.199280
0.905029 0.720276 0.199280
0.000000 0.877655 0.199280
0.134308 0.877655 0.199280
0.265015 0.877655 0.199280
0.394348 0.877655 0.199280
0.522888 0.877655 0.199280
0.650726 0.877655 0.199280
0.778107 0.877655 0.199280
0.905029 0.877655 0.199280
0.000000 0.000000 0.343384
0.134308 0.000000 0.343384
0.265015 0.000000 0.343384
0.394348 0.000000 0.343384
0.522888 0.000000 0.343384
0.650726 0.000000 0.343384
0.778107 0.000000 0.343384
0.905029 0.000000 0.343384
0.000000 0.072418 0.343384
0.134308 0.072418 0.343384
0.265015 0.072418 0.343384
0.394348 0.072418 0.343384
0.522888 0.072418 0.343384
0.650726 0.072418 0.343384
0.778107 0.072418 0.343384
0.905029 0.072418 0.343384
0.000000 0.176117 0.343384
0.134308 0.176117 0.343384
0.265015 0.176117 0.343384
0.394348 0.176117 0.343384
0.522888 0.176117 0.343384
0.650726 0.176117 0.343384
0.778107 0.176117 0.343384
0.905029 0.176117 0.343384
0.000000 0.296173 0.343384
0.134308 0.296173 0.343384
0.265015 0.296173 0.343384
0.394348 0.296173 0.343384
0.522888 0.296173 0.343384
0.650726 0.296173 0.343384
0.778107 0.296173 0.343384
0.905029 0.296173 0.343384
0.000000 0.428314 0.343384
0.134308 0.428314 0.343384
0.265015 0.428314 0.343384
0.394348 0.428314 0.343384
0.522888 0.428314 0.343384
0.650726 0.428314 0.343384
0.778107 0.428314 0.343384
0.905029 0.428314 0.343384
0.000000 0.570160 0.343384
0.134308 0.570160 0.343384
0.265015 0.570160 0.343384
0.394348 0.570160 0.343384
0.522888 0.570160 0.343384
0.650726 0.570160 0.343384
0.778107 0.570160 0.343384
0.905029 0.570160 0.343384
0.000000 0.720276 0.343384
0.134308 0.720276 0.343384
0.265015 0.720276 0.343384
0.394348 0.720276 0.343384
0.522888 0.720276 0.343384
0.650726 0.720276 0.343384
0.778107 0.720276 0.343384
0.905029 0.720276 0.343384
0.000000 0.877655 0.343384
0.134308 0.877655 0.343384
0.265015 0.877655 0.343384
0.394348 0.877655 0.343384
0.522888 0.877655 0.343384
0.650726 0.877655 0.343384
0.778107 0.877655 0.343384
0.905029 0.877655 0.343384
0.000000 0.000000 0.535706
0.134308 0.000000 0.535706
0.265015 0.000000 0.535706
0.394348 0.000000 0.535706
0.522888 0.000000 0.535706
0.650726 0.000000 0.535706
0.778107 0.000000 0.535706
0.905029 0.000000 0.535706
0.000000 0.072418 0.535706
0.134308 0.072418 0.535706
0.265015 0.072418 0.535706
0.394348 0.072418 0.535706
0.522888 0.072418 0.535706
0.650726 0.072418 0.535706
0.778107 0.072418 0.535706
0.905029 0.072418 0.535706
0.000000 0.176117 0.535706
0.134308 0.176117 0.535706
0.265015 0.176117 0.535706
0.394348 0.176117 0.535706
0.522888 0.176117 0.535706
0.650726 0.176117 0.535706
0.778107 0.176117 0.535706
0.905029 0.176117 0.535706
0.000000 0.296173 0.535706
0.134308 0.296173 0.535706
0.265015 0.296173 0.535706
0.394348 0.296173 0.535706
0.522888 0.296173 0.535706
0.650726 0.296173 0.535706
0.778107 0.296173 0.535706
0.905029 0.296173 0.535706
0.000000 0.428314 0.535706
0.134308 0.428314 0.535706
0.265015 0.428314 0.535706
0.394348 0.428314 0.535706
0.522888 0.428314 0.535706
0.650726 0.428314 0.535706
0.778107 0.428314 0.535706
0.905029 0.428314 0.535706
0.000000 0.570160 0.535706
0.134308 0.570160 0.535706
0.265015 0.570160 0.535706
0.394348 0.570160 0.535706
0.522888 0.570160 0.535706
0.650726 0.570160 0.535706
0.778107 0.570160 0.535706
0.905029 0.570160 0.535706
0.000000 0.720276 0.535706
0.134308 0.720276 0.535706
0.265015 0.720276 0.535706
0.394348 0.720276 0.535706
0.522888 0.720276 0.535706
0.650726 0.720276 0.535706
0.778107 0.720276 0.535706
0.905029 0.720276 0.535706
0.000000 0.877655 0.535706
0.134308 0.877655 0.535706
0.265015 0.877655 0.535706
0.394348 0.877655 0.535706
0.522888 0.877655 0.535706
0.650726 0.877655 0.535706
0.778107 0.877655 0.535706
0.905029 0.877655 0.535706
0.000000 0.000000 0.780182
0.134308 0.000000 0.780182
0.265015 0.000000 0.780182
0.394348 0.000000 0.780182
0.522888 0.000000 0.780182
0.650726 0.000000 0.780182
0.778107 0.000000 0.780182
0.905029 0.000000 0.780182
0.000000 0.072418 0.780182
0.134308 0.072418 0.780182
0.265015 0.072418 0.780182
0.394348 0.072418 0.780182
0.522888 0.072418 0.780182
0.650726 0.072418 0.780182
0.778107 0.072418 0.780182
0.905029 0.072418 0.780182
0.000000 0.176117 0.780182
0.134308 0.176117 0.780182
0.265015 0.176117 0.780182
0.394348 0.176117 0.780182
0.522888 0.176117 0.780182
0.650726 0.176117 0.780182
0.778107 0.176117 0.780182
0.905029 0.176117 0.780182
0.000000 0.296173 0.780182
0.134308 0.296173 0.780182
0.265015 0.296173 0.780182
0.394348 0.296173 0.780182
0.522888 0.296173 0.780182
0.650726 0.296173 0.780182
0.778107 0.296173 0.780182
0.905029 0.296173 0.780182
0.000000 0.428314 0.780182
0.134308 0.428314 0.780182
0.265015 0.428314 0.780182
0.394348 0.428314 0.780182
0.522888 0.428314 0.780182
0.650726 0.428314 0.780182
0.778107 0.428314 0.780182
0.905029 0.428314 0.780182
0.000000 0.570160 0.780182
0.134308 0.570160 0.780182
0.265015 0.570160 0.780182
0.394348 0.570160 0.780182
0.522888 0.570160 0.780182
0.650726 0.570160 0.780182
0.778107 0.570160 0.780182
0.905029 0.570160 0.780182
0.000000 0.720276 0.780182
0.134308 0.720276 0.780182
0.265015 0.720276 0.780182
0.394348 0.720276 0.780182
0.522888 0.720276 0.780182
0.650726 0.720276 0.780182
0.778107 0.720276 0.780182
0.905029 0.720276 0.780182
0.000000 0.877655 0.780182
0.134308 0.877655 0.780182
0.265015 0.877655 0.780182
0.394348 0.877655 0.780182
0.522888 0.877655 0.780182
0.650726 0.877655 0.780182
0.778107 0.877655 0.780182
0.905029 0.877655 0.780182
